!!!!SEGMENT: pl-kk--kk-i-2--051-003_pekiel-bartlomiej--missa-brevis-credo.krn
!!!cenid: 16xx:1731
!!!COM: Pękiel, Bartłomiej
!!!COM-rismid: pe30105642
!!!CDT: <1633-~1670
!!!CNT: Polish
!!!OPR: Missa Brevis
!!!OTL: Credo
!!!OMV: 003
!!!PDT: 1661
!!!AGN: Sacred; Mass
!!!SMS-siglum: PL-Kk
!!!SMS-shelfmark: Kk.I.2
!!!SMS-shelfwork: 051-003 M
!!!NIFC-rismid: 300258069
!!!URL-scan: https://repozytorium.nifc.pl/islandora/object/pl-kk%3A750/datastream/PDF/view#page=87
!!!ONB-nifc: Części mszy: Kyrie, Gloria, Credo, Sanctus, Benedictus, Agnus Dei; skany: C: 0088-0090; A: 0192-0194; T: 0291-0293; B: 0392-0394
!!!AIN: 1 alt 1 bass 1 soprn 1 tenor
!!!key: g dor
**kern	**text	**kern	**text	**kern	**text	**kern	**text	**text
*part4	*part4	*part3	*part3	*part2	*part2	*part1	*part1	*part1
*staff4	*staff4	*staff3	*staff3	*staff2	*staff2	*staff1	*staff1	*staff1
*I"BASVS	*	*I"TENOR	*	*I"ALTVS	*	*I"DISCANTVS	*	*
*I'B	*	*I'T	*	*I'A	*	*I'S	*	*
*Ibass	*	*Itenor	*	*Ialt	*	*Isoprn	*	*
*ICvox	*	*ICvox	*	*ICvox	*	*ICvox	*	*
*clefF4	*	*clefC4	*	*clefC4	*	*clefC3	*	*
*k[b-]	*	*k[b-]	*	*k[b-]	*	*k[b-]	*	*
*g:	*	*g:	*	*g:	*	*g:	*	*
*M2/1	*	*M2/1	*	*M2/1	*	*M2/1	*	*
*met(C|)	*	*met(C|)	*	*met(C|)	*	*met(C|)	*	*
=1-	=1-	=1-	=1-	=1-	=1-	=1-	=1-	=1-
*all\right	*	*all\right	*	*all\right	*	*all\right	*	*
!LO:TX:t=P:problem:w miejscu kresek taktowych mała kreska na 5. linii:global	!	!LO:TX:t=P:problem:w miejscu kresek taktowych mała kreska na 5. linii:global	!	!LO:TX:t=P:problem:w miejscu kresek taktowych mała kreska na 5. linii:global	!	!LO:TX:t=P:problem:w miejscu kresek taktowych mała kreska na 5. linii:global	!	!
1r	.	1d\	Pa-	00r	.	0r	.	.
1G\	Pa-	2G/	-trem	.	.	.	.	.
*2\right	*	*2\right	*	*	*	*	*	*
.	.	2B-\	o-	.	.	.	.	.
=2-	=2-	=2-	=2-	=2-	=2-	=2-	=2-	=2-
2D\	-trem	2A/	-mni-	.	.	1r	.	.
2F\	o-	2F/	-po-	.	.	.	.	.
*	*	*lig	*	*	*	*	*	*
2E\	-mni-	1c\	ten-	.	.	1g\	Pa-	.
2C/	-po-	.	.	.	.	.	.	.
=3-	=3-	=3-	=3-	=3-	=3-	=3-	=3-	=3-
*	*	*	*	*	*	*2\right	*	*
1G\	-te(n)-	1B-\	.	0r	.	2d\	-trem	.
.	.	.	.	.	.	2g\	O-	.
*	*	*Xlig	*	*	*	*	*	*
1D\	-te(m)	1A\	-tem	.	.	2f\	-(mn)i-	.
.	.	.	.	.	.	2d\	-po-	.
=4-	=4-	=4-	=4-	=4-	=4-	=4-	=4-	=4-
1D\	o-	2f\	O-	1A\	Pa-	4a\	-ten-	.
.	.	.	.	.	.	4g\	.	.
.	.	2.d\	-mni-	.	.	2.f\	.	.
1BB-/	-mni	.	.	2D/	-trem	.	.	.
.	.	4c\	.	.	.	4e\	.	.
.	.	4B-\	.	2F/	o-	2d\	.	.
.	.	4A/	.	.	.	.	.	.
=5-	=5-	=5-	=5-	=5-	=5-	=5-	=5-	=5-
1C/	po-	2G/	.	4E/	-mni	2c/	-tem	.
.	.	.	.	4C/	po-	.	.	.
.	.	4A/	.	1c\	-ten-	2c/	Om-	.
.	.	4G/	.	.	.	.	.	.
0D\	-ten-	4F#X/	.	.	.	2A/	-ni-	.
.	.	4D/	.	.	.	.	.	.
.	.	1G/	-po-	2B-\	.	2B-/	-po-	.
=6-	=6-	=6-	=6-	=6-	=6-	=6-	=6-	=6-
.	.	.	.	1A\	-tem	1d\	-ten-	.
.	.	2F#X/	-ten-	.	.	.	.	.
1GG/	-tem	1G/	-tem	2G/	.	2d\	.	.
.	.	.	.	2G/	fa-	2g\	te(m)	.
=7-	=7-	=7-	=7-	=7-	=7-	=7-	=7-	=7-
1r	.	0r	.	2A/	-cto-	2f\	fa-	.
*	*	*	*	*2\right	*	*	*	*
!	!	!	!	!LO:TX:t=P:problem:♯above	!	!	!	!
!	!	!	!	!LO:N:acc=#	!	!	!	!
.	.	.	.	2Bn\	-re(m)	2d\	-cto-	.
*	*	*	*	*lig	*	*	*	*
1C/	Fa-	.	.	1c\	Cae-	1e\	-re(m)	.
=8-	=8-	=8-	=8-	=8-	=8-	=8-	=8-	=8-
*	*	*	*	*	*	*	*ij	*
!	!	!	!	!LO:TX:t=P:problem:♭above	!	!	!	!
!	!	!	!	!LO:SIC:v:t=custos A	!	!	!	!
2D/	-cto-	1r	.	1B-X\	.	2f\	fa-	.
2E\	-re(m)	.	.	.	.	2g\	-cto-	.
*	*	*	*	*Xlig	*	*lig	*	*
!	!	!	!	!LO:LB:g=original	!	!	!	!
1.F\	cae-	1A\	Fa-	2A\	-li	1a\	-rem	.
*	*	*	*	*	*	*	*Xij	*
.	.	.	.	2c\	fac-	.	.	.
=9-	=9-	=9-	=9-	=9-	=9-	=9-	=9-	=9-
!	!	!LO:N:acc=#	!	!	!	!	!	!
.	.	2Bn\	-cto-	2d\	-to-	1g\	.	.
2E\	.	2c#X\	-rem	2e\	-re(m)	.	.	.
*	*	*	*	*	*	*Xlig	*	*
2D\	.	(2d\	cae-	2f\	Cae-	2f\	cae-	.
!	!	!LO:SIC:v:t=custos A	!	!	!	!	!	!
2C#X/	-li	2e\)	.	2.e\	-li	4a\	-li	.
.	.	.	.	.	.	4g\	&	.
!	!	!LO:LB:g=original	!	!	!	!	!	!
=10-	=10-	=10-	=10-	=10-	=10-	=10-	=10-	=10-
*	*	*	*	*	*	*lig	*	*
1D\	&	2A/	-li	.	.	1f\	ter-	.
.	.	.	.	4A\	&	.	.	.
.	.	2A/	&	1d\	ter-	.	.	.
1AA/	ter-	1A\	ter-	.	.	1e\	.	.
!	!	!	!	!LO:TX:t=P:problem:♯above	!	!	!	!
.	.	.	.	2c#X\	.	.	.	.
*	*	*	*	*	*	*Xlig	*	*
=11-	=11-	=11-	=11-	=11-	=11-	=11-	=11-	=11-
!	!	!	!	!	!	!LO:SIC:v:t=custos a	!	!
1D\	-ra(e)	2A/	-rae	2d\	-rae	1f-X\	-rae	.
.	.	1d\	vi-	1f\	Vi-	.	.	.
!LO:SIC:v:t=custos G	!	!	!	!	!	!LO:PB:g=original	!	!
1r	.	.	.	.	.	1.a\	vi-	.
.	.	2cny\	-ſi-	2e\	-ſi-	.	.	.
!LO:LB:g=original	!	!	!	!	!	!	!	!
=12-	=12-	=12-	=12-	=12-	=12-	=12-	=12-	=12-
2r	.	2.B-y\	-bi-	2.d\	-bi-	.	.	.
1G\	vi-	.	.	.	.	2g\	-ſi-	.
.	.	4B-\	-li-	4d\	-li-	.	.	.
.	.	1A\	-um	2cny\	-um	2.a\	-bi-	.
2F\	ſi-	.	.	1d\	Om-	.	.	.
.	.	.	.	.	.	4a\	-li-	.
=13-	=13-	=13-	=13-	=13-	=13-	=13-	=13-	=13-
2.E-X\	-bi-	2r	.	.	.	2g\	-um	.
.	.	1G/	vi-	2c\	.	4G/	om-	[[Et
4E-\	-li-	.	.	.	.	4A/	.	in-
1D\	-um	.	.	2B-\	.	4B-/	.	-ui-
.	.	.	.	.	.	4c/	.	.
.	.	2F#X/	-ſi-	1A\	.	4d/	.	-si-
.	.	.	.	.	.	4e-X/	.	.
=14-	=14-	=14-	=14-	=14-	=14-	=14-	=14-	=14-
1.D\	o-	2B-\	-bi-	.	.	1.d\	.	-bi-
.	.	4B-\	-li-	1G/	.	.	.	.
.	.	4B-\	-um	.	.	.	.	.
.	.	2.A/	om-	.	.	.	.	.
2D/	-mni-	.	.	2F#X/	-ni-	2d/	-ni-	-li-
.	.	4A/	-ni-	.	.	.	.	.
=15-	=15-	=15-	=15-	=15-	=15-	=15-	=15-	=15-
2GG/	-um	2G/	-um	1G/	-um	1d\	-um	-um]]
1G\	Et	1B-\	Et	.	.	.	.	.
.	.	.	.	1r	.	2g\	Et	.
2A\	in-	2c\	in	.	.	2f\	in-	.
=16-	=16-	=16-	=16-	=16-	=16-	=16-	=16-	=16-
2B-\	-ui-	2d\	vi-	2.d\	Et	2f\	-ui-	.
2G\	ſi-	2B-\	-ſi-	.	.	2g\	-ſi-	.
.	.	.	.	4e\	in	.	.	.
1.F\	-bi-	2A\	-bi-	2f\	vi-	2c/	-bi-	.
.	.	1B-\	.	2d\	-ſi-	4d\	.	.
.	.	.	.	.	.	4eny\	.	.
=17-	=17-	=17-	=17-	=17-	=17-	=17-	=17-	=17-
.	.	.	.	2.c\	-bi-	2.f\	.	.
2F\	-li-	2A\	-li-	.	.	.	.	.
.	.	.	.	4c\	-li-	4f\	-li-	.
2BB-/	-um	2B-\	-um	2d\	-um	2f\	-um	.
1BB-/	Et	1B-\	Et	1d\	Et	1f\	Et	.
=18-	=18-	=18-	=18-	=18-	=18-	=18-	=18-	=18-
.	.	.	.	.	.	.	.	.
2F\	in	2c\	in	2f\	in	2a\	in	.
2G\	v-	2B-\	u-	4.e\	u-	2g\	v-	.
.	.	.	.	8e\	-nu(m)	.	.	.
2D/	-num	2A/	-num	1d\	Do-	2f\	-nu(m)	.
=19-	=19-	=19-	=19-	=19-	=19-	=19-	=19-	=19-
2.A\	D(o-	2.A/	Do-	.	.	2.e\	D(o-	.
!	!	!	!	!LO:SIC:v:t=custos d	!	!	!	!
!	!	!	!	!LO:TX:t=P:problem:♯above	!	!	!	!
.	.	.	.	2c#X\	-mi-	.	.	.
!	!	!LO:SIC:v:t=custos A	!	!	!	!	!	!
4A\	-mi)-	4A/	-mi-	.	.	4e\	-mi)-	.
!	!	!LO:LB:g=original	!	!LO:PB:g=original	!	!	!	!
1D\	-num	2A/	-num	1d\	-num	0f\	-num	.
.	.	1d\	IE-	.	.	.	.	.
=20-	=20-	=20-	=20-	=20-	=20-	=20-	=20-	=20-
1BB-/	IE-	.	.	2r	.	.	.	.
.	.	1B-\	-SVM	1d\	IE-	.	.	.
1GG/	-SV(m)	.	.	.	.	2r	.	.
.	.	2G/	Chr(i-	2B-\	.	1g\	IE-	.
=21-	=21-	=21-	=21-	=21-	=21-	=21-	=21-	=21-
*	*ij	*	*	*	*	*	*	*
1C/	IE-	2E/	-st)um	2cny\	-SVM	.	.	.
*	*	*	*ij	*	*	*	*	*
.	.	1c\	IE-	2G/	Ch(ri)-	1e\	-SV(m)	.
1AA/	-SV(m)	.	.	2A/	.	.	.	.
*	*Xij	*	*	*	*	*	*	*
.	.	2A\	-SVM	2c\	.	1f\	CHr(i-	.
=22-	=22-	=22-	=22-	=22-	=22-	=22-	=22-	=22-
(2BB-/	Chri-	1G/	Chr(i-	(>2d\	.	.	.	.
!	!	!	!	!	!	!LO:SIC:v:t=custos f	!	!
2C/)	.	.	.	2c\)	.	2e\	-st)um	.
!	!	!	!	!	!	!LO:LB:g=original	!	!
2FF/	-ſtum	1A\	-st)um	1c\	-(s)tum	2f\	.	.
*	*	*	*Xij	*	*	*	*	*
2.F\	Fi-	.	.	.	.	2.a\	Fi-	.
=23-	=23-	=23-	=23-	=23-	=23-	=23-	=23-	=23-
.	.	1r	.	2r	.	.	.	.
4F\	-li-	.	.	.	.	4a\	-li-	.
!LO:SIC:v:t=custos F	!	!	!	!	!	!	!	!
2Eny\	-um	.	.	2.c\	Fi-	2g\	-um	.
!LO:LB:g=original	!	!	!	!	!	!	!	!
*lig	*	*	*	*	*	*lig	*	*
1F\	DE-	2r	.	.	.	1f\	De-	.
.	.	.	.	4c\	-li-	.	.	.
.	.	2.Fny/	Fi-	2A/	-um	.	.	.
=24-	=24-	=24-	=24-	=24-	=24-	=24-	=24-	=24-
1C/	.	.	.	1c\	DE-	1.g\	.	.
.	.	4F/	-li-	.	.	.	.	.
.	.	2E/	-um	.	.	.	.	.
*Xlig	*	*	*	*	*	*Xlig	*	*
2GG/	-I	1G/	DE-	2B-\	-I	.	.	.
*	*ij	*	*	*	*ij	*	*	*
2.G\	Fi-	.	.	2.B-\	Fi-	2d\	.	.
=25-	=25-	=25-	=25-	=25-	=25-	=25-	=25-	=25-
.	.	2D/	-I	.	.	1.d\	-i	.
4G\	-li-	.	.	4B-\	li-	.	.	.
2F#X\	-um	2.d\	Fi-	2A/	-um	.	.	.
2G\	DE-	.	.	2B-\	DE-	.	.	.
.	.	4d\	-li-	.	.	.	.	.
2E-X\	-I	2c\	-um	2G/	-I	1g\	U-	.
*	*Xij	*	*	*	*Xij	*	*	*
=26-	=26-	=26-	=26-	=26-	=26-	=26-	=26-	=26-
2C/	V-	2e-X\	DE-	2c\	U-	.	.	.
!LO:N:acc=#	!	!	!	!	!	!	!	!
2BBn/	-ni	2d\	-I	2d\	-ni-	2g\	-ni-	.
*lig	*	*	*	*	*	*lig	*	*
1C/	ge-	2.c\	V-	1.e-X\	-ge-	1g\	-ge-	.
.	.	4B-\	.	.	.	.	.	.
=27-	=27-	=27-	=27-	=27-	=27-	=27-	=27-	=27-
1.Fny\	.	4A\	.	.	.	1.f\	.	.
.	.	4F/	-ni-	.	.	.	.	.
.	.	1B-\	-ge-	2d\	.	.	.	.
.	.	.	.	2.c\	.	.	.	.
*Xlig	*	*	*	*	*	*Xlig	*	*
2F\	-ni-	2A/	-ni-	.	.	2f\	-ni-	.
.	.	.	.	4c\	-ni-	.	.	.
=28-	=28-	=28-	=28-	=28-	=28-	=28-	=28-	=28-
!	!	!	!	!	!	!LO:TX:t=P:problem:kreska pseudotaktowa	!	!
1BB-y/	-tum	2B-\	-tum	2d\	-tum	1f\	-tum	.
.	.	1B-\	et	1d\	et	.	.	.
0r	.	.	.	.	.	2.f\	Et	.
.	.	2A/	ex	2c\	ex	.	.	.
.	.	.	.	.	.	4f\	.	.
=29-	=29-	=29-	=29-	=29-	=29-	=29-	=29-	=29-
.	.	2G/	P(a)-	2B-\	Pa-	2e-X\	ex	.
!	!	!LO:SIC:v:t=custos Es	!	!LO:TX:a:t=a	!	!	!	!
.	.	2F/	-(tr)e	2A\	-tre	2d\	P(a)-	.
!	!	!LO:LB:g=original	!	!	!	!	!	!
1r	.	1E-X/	na-	1.G/	na-	2d\	-(t)re	.
.	.	.	.	.	.	2c/	na-	.
=30-	=30-	=30-	=30-	=30-	=30-	=30-	=30-	=30-
1D\	an-	1D/	-tum	.	.	2B-/	.	.
.	.	.	.	2F#X/	tu(m)	2A/	.	.
2GG/	-te	00r	.	1B-\	an-	1G/	-tu(m)	.
2.G\	om-	.	.	.	.	.	.	.
=31-	=31-	=31-	=31-	=31-	=31-	=31-	=31-	=31-
.	.	.	.	1A\	-te	1d\	an-	.
4G\	-ni-	.	.	.	.	.	.	.
2F#X\	-a	.	.	.	.	.	.	.
4G\	se-	.	.	4B-\	om-	2G/	-te	.
4A\	.	.	.	4c\	.	.	.	.
4B-\	.	.	.	4d\	.	2.g\	om-	.
!	!	!	!	!LO:SIC:v:t=custos cis	!	!	!	!
4G\	.	.	.	4eny\	.	.	.	.
!	!	!	!	!LO:LB:g=original	!	!	!	!
=32-	=32-	=32-	=32-	=32-	=32-	=32-	=32-	=32-
1.A\	.	.	.	4.c#X\	.	.	.	.
.	.	.	.	.	.	4g\	.	.
.	.	.	.	8c#\	-ni-	.	.	.
.	.	.	.	2d\	-a	2f\	-nia	.
.	.	2r	.	2.d\	sae-	2.eny\	sae-	.
2A\	-cu-	2A/	De-	.	.	.	.	.
!	!	!	!	!LO:TX:t=P:problem:♯above	!	!	!	!
.	.	.	.	4c#X\	-cu-	4e\	-cu-	.
=33-	=33-	=33-	=33-	=33-	=33-	=33-	=33-	=33-
2D/	-la	2A/	-um	1d\	-la	2f\	-la	.
2D/	De-	2A/	de	.	.	2f\	De-	.
2D/	-u(m)	1B-\	DE-	0r	.	2f\	-u(m)	.
!	!	!	!	!	!	!LO:SIC:v:t=custos g	!	!
2D/	de	.	.	.	.	2f\	de	.
!	!	!	!	!	!	!LO:LB:g=original	!	!
=34-	=34-	=34-	=34-	=34-	=34-	=34-	=34-	=34-
1E-X\	De-	1G/	-o	.	.	1g\	DE-	.
!LO:SIC:v:t=custos F	!	!	!	!	!	!	!	!
1C/	-o	2r	.	2r	.	1e-X\	-o	.
.	.	2c\	Lu-	2cny\	Lu-	.	.	.
!LO:LB:g=original	!	!	!	!	!	!	!	!
=35-	=35-	=35-	=35-	=35-	=35-	=35-	=35-	=35-
2r	.	2A/	-men	2c\	-men	2r	.	.
2Fny\	Lu-	2F/	de	2c\	de	2f\	Lu-	.
*	*	*	*	*lig	*	*	*	*
2D/	-men	1.B-\	Lu-	1d\	Lu-	2f\	-men	.
2BB-/	de	.	.	.	.	2f\	de	.
=36-	=36-	=36-	=36-	=36-	=36-	=36-	=36-	=36-
2.E-X\	lu-	.	.	2.e-X\	.	2.g\	Lu-	.
.	.	2B-\	-mi-	.	.	.	.	.
*	*	*	*	*Xlig	*	*	*	*
4E-\	-mi-	.	.	4e-\	-mi-	4g\	-mi-	.
2BB-/	-ne	2B-\	-ne	2d\	-ne	1f\	-ne	.
4BB-/	DE-	1B-\	De-	1d\	DE-	.	.	.
4C/	.	.	.	.	.	.	.	.
=37-	=37-	=37-	=37-	=37-	=37-	=37-	=37-	=37-
4D/	.	.	.	.	.	1r	.	.
4En/	.	.	.	.	.	.	.	.
1F\	.	4A/	.	4c\	.	.	.	.
.	.	4G/	.	4B-\	.	.	.	.
.	.	4A/	.	4c\	.	2r	.	.
.	.	4B-\	.	4d\	.	.	.	.
2E\	um	4c\	.	4eny\	.	1c\	DE-	.
.	.	4c\	-um	4c\	-um	.	.	.
=38-	=38-	=38-	=38-	=38-	=38-	=38-	=38-	=38-
1D\	ve-	2d\	Ve-	1.f\	Ve-	.	.	.
.	.	4F/	.	.	.	2B-/	-(um)	.
.	.	4G/	.	.	.	.	.	.
1C/	-rum	4A/	.	.	.	2A/	ve-	.
.	.	4B-\	.	.	.	.	.	.
.	.	4c\	.	2e\	-rum	2G/	.	.
.	.	4G/	.	.	.	.	.	.
=39-	=39-	=39-	=39-	=39-	=39-	=39-	=39-	=39-
2AA/	de	4A/	-rum	2c\	de	2F/	rum	.
.	.	4c\	.	.	.	.	.	.
1BB-/	DE-	4d\	de	1B-\	DE-	2f\	de	.
!	!	!LO:SIC:v:t=custos B-	!	!	!	!	!	!
.	.	4c\	.	.	.	.	.	.
!	!	!LO:LB:g=original	!	!	!	!	!	!
.	.	4B-\	DE-	.	.	4.d\	DE-	.
.	.	8F/L	.	.	.	.	.	.
.	.	8G/J	.	.	.	8eny\	.	.
2AA/	-o	4A/	.	2c\	-o	1f\	-o	.
.	.	4F/	-o	.	.	.	.	.
=40-	=40-	=40-	=40-	=40-	=40-	=40-	=40-	=40-
!LO:TX:t=P:problem:kreska pseudotaktowa	!	!	!	!	!	!	!	!
1GG/	ve-	1G/	ve-	1B-\	ve-	.	.	.
.	.	.	.	.	.	2e\	ve-	.
!LO:TX:t=P:problem:kreska pseudotaktowa	!	!	!	!	!	!	!	!
1FF/	-ro	2C/	-ro	1A\	-ro	1f\	-ro	.
.	.	2.c\	Ge-	.	.	.	.	.
=41-	=41-	=41-	=41-	=41-	=41-	=41-	=41-	=41-
2.F\	Ge-	.	.	2.A/	Ge-	0r	.	.
.	.	4c\	-ni-	.	.	.	.	.
.	.	1d\	-tum	.	.	.	.	.
4F\	-ni-	.	.	4A/	-ni-	.	.	.
!LO:TX:t=P:problem:kreska pseudotaktowa	!	!	!	!	!	!	!	!
1G\	-tu(m)	.	.	1B-\	tum	.	.	.
.	.	2B-\	n(on)	.	.	.	.	.
=42-	=42-	=42-	=42-	=42-	=42-	=42-	=42-	=42-
2E\	n(on)	4c\	fa-	2G/	n(on)	2.c\	Ge-	.
.	.	4B-\	.	.	.	.	.	.
4F\	fa-	4A/	.	1c\	fa-	.	.	.
4E\	.	4G/	.	.	.	4c\	-ni-	.
4D/	.	2A/	.	.	.	4d\	-tum	.
4C/	.	.	.	.	.	4e\	n(on)	.
!	!	!	!	!LO:N:acc=#	!	!	!	!
2D/	.	4G/	.	2Bn\	.	2f\	fa-	.
.	.	4F/	.	.	.	.	.	.
=43-	=43-	=43-	=43-	=43-	=43-	=43-	=43-	=43-
!LO:TX:t=P:problem:kreska pseudotaktowa	!	!	!	!LO:TX:t=P:problem:kreska pseudotaktowa	!	!	!	!
1C/	-ctum	2G/	-ctum	1c\	-ctum	1e\	-ctu(m)	.
.	.	2.G/	con-	.	.	.	.	.
!	!	!	!	!LO:TX:t=P:problem:kreska pseudotaktowa	!	!	!	!
2.C/	con-	.	.	0r	.	2.e\	con-	.
.	.	4G/	-ſub-	.	.	.	.	.
.	.	2.A\	-sta(n-	.	.	.	.	.
!LO:TX:t=P:problem:kreska pseudotaktowa	!	!	!	!	!	!	!	!
4C/	-ſub-	.	.	.	.	4e\	-ſub-	.
=44-	=44-	=44-	=44-	=44-	=44-	=44-	=44-	=44-
2.D/	-ſtan-	.	.	.	.	2.f\	-ſtan-	.
.	.	4F/	-ti-	.	.	.	.	.
.	.	2.B-\	-a)-	.	.	.	.	.
!LO:SIC:v:t=custos Es	!	!	!	!	!	!	!	!
4BB-/	-ti-	.	.	.	.	4d\	-ti-	.
!LO:LB:g=original	!	!	!	!	!	!	!	!
2.E-X\	-a-	.	.	2.B-y\	Con-	2.g\	-a-	.
.	.	4A/	.	.	.	.	.	.
.	.	1G/	.	.	.	.	.	.
!LO:TX:t=P:problem:kreska pseudotaktowa	!	!	!	!	!	!LO:SIC:v:t=custos es	!	!
4D/	.	.	.	4B-\	-ſub-	4f\	.	.
!	!	!	!	!	!	!LO:LB:g=original	!	!
=45-	=45-	=45-	=45-	=45-	=45-	=45-	=45-	=45-
2C/	.	.	.	4.c\	-ſtan-	2e-X\	-lem	.
.	.	.	.	8c\	-tia-	.	.	.
!LO:TX:t=P:problem:kreska pseudotaktowa	!	!	!	!	!	!	!	!
!LO:N:acc=#	!	!	!	!	!	!	!	!
2BBn/	-lem	2G/	-lem	4.d\	.	4d\	.	.
.	.	.	.	.	.	2d\	Pa-	.
!	!	!	!	!LO:SIC:v:t=custos es	!	!	!	!
.	.	.	.	8d\	-le(m)	.	.	.
!	!	!	!	!LO:LB:g=original	!	!	!	!
1C/	Pa-	1G/	P(a-	1e-X\	Pa-	.	.	.
.	.	.	.	.	.	8c\L	.	.
.	.	.	.	.	.	8B-\J	.	.
.	.	.	.	.	.	2c\	.	.
=46-	=46-	=46-	=46-	=46-	=46-	=46-	=46-	=46-
!LO:TX:t=P:problem:kreska pseudotaktowa	!	!	!	!	!	!	!	!
1GG/	-tri	1G/	-tr)i	2d\	-tri	1B-X/	-tri	.
.	.	.	.	2d\	per	.	.	.
2r	.	0r	.	2G/	-quem	1r	.	.
!LO:TX:t=P:problem:kreska pseudotaktowa	!	!	!	!	!	!	!	!
2G\	per	.	.	2.B-\	om-	.	.	.
=47-	=47-	=47-	=47-	=47-	=47-	=47-	=47-	=47-
2D\	que(m)	.	.	.	.	2f\	per	.
.	.	.	.	8A/L	.	.	.	.
.	.	.	.	8G/J	.	.	.	.
4.F\	om-	.	.	4A/	.	2c\	que(m)	.
.	.	.	.	4B-/	.	.	.	.
8F\	-ni-	.	.	.	.	.	.	.
!LO:TX:t=P:problem:kreska pseudotaktowa	!	!	!	!	!	!	!	!
1C/	-a	2c\	per	2.c\	.	2.e-X\	o(m)-	.
!	!	!LO:SIC:v:t=custos B-	!	!	!	!	!	!
.	.	2G/	quem	.	.	.	.	.
.	.	.	.	4c\	ni-	4e-\	-ni-	.
!	!	!LO:PB:g=original	!	!	!	!	!	!
=48-	=48-	=48-	=48-	=48-	=48-	=48-	=48-	=48-
4.GG/	om-	4.B-\	o-	2B-\	-a	2d\	-a	.
8GG/	-ni-	8B-\	-mni-	.	.	.	.	.
!LO:TX:t=P:problem:kreska pseudotaktowa	!	!	!	!	!	!	!	!
2FF#X/	-a	1A\	-a	4d\	fa-	2.d\	fa-	.
.	.	.	.	4c\	.	.	.	.
*lig	*	*	*	*	*	*	*	*
1GG/	fa-	.	.	4B-\	.	.	.	.
.	.	.	.	4c\	.	4c/	.	.
.	.	1G/	fa-	4d\	.	4B-/	.	.
.	.	.	.	4eny\	.	8c/L	.	.
.	.	.	.	.	.	8B-/J	.	.
=49-	=49-	=49-	=49-	=49-	=49-	=49-	=49-	=49-
1.AA/	.	.	.	4c#X\	.	1.A/	.	.
.	.	.	.	4A\	.	.	.	.
.	.	2F/	.	1d\	.	.	.	.
.	.	2.Eny/	.	.	.	.	.	.
*Xlig	*	*	*	*	*	*	*	*
!LO:TX:t=P:problem:kreska pseudotaktowa	!	!	!	!	!	!	!	!
2AA/	-cta	.	.	2c#\	-cta	2A/	-cta	.
.	.	4E/	-cta	.	.	.	.	.
=50-	=50-	=50-	=50-	=50-	=50-	=50-	=50-	=50-
2D\	sunt	4D/	sunt	1f\	ſunt	2A/	ſunt	.
.	.	4A/	qui	.	.	.	.	.
2D\	q(ui)	1d\	p(ro)-	.	.	2r	.	.
1G\	p(ro)-	.	.	1r	.	2d\	qui	.
!	!	!LO:TX:t=P:problem:♯above	!	!	!	!	!	!
!	!	!LO:N:acc=#	!	!	!	!	!	!
.	.	4Bn\	-p(te)r	.	.	2.g\	pro-	.
.	.	4B\	nos	.	.	.	.	.
=51-	=51-	=51-	=51-	=51-	=51-	=51-	=51-	=51-
!LO:TX:t=P:problem:kreska pseudotaktowa	!	!	!	!	!	!	!	!
1Eny\	-p(te)r	2.c\	Ho-	2G/	Qui	.	.	.
.	.	.	.	.	.	4g\	.	.
.	.	.	.	2.cny\	pro-	2eny\	-pter	.
.	.	4B-y\	.	.	.	.	.	.
1F\	nos	2A\	.	.	.	1.a\	nos	.
.	.	.	.	4A\	pter	.	.	.
.	.	2.d\	.	2f\	nos	.	.	.
=52-	=52-	=52-	=52-	=52-	=52-	=52-	=52-	=52-
2.A\	ho-	.	.	4f\	ho-	.	.	.
.	.	4c\	.	4e\	.	.	.	.
.	.	1c\	.	4e\	.	4e\	ho-	.
!LO:TX:t=P:problem:kreska pseudotaktowa	!	!	!	!	!	!	!	!
4A\	-mi-	.	.	8d\L	.	4f\	.	.
.	.	.	.	8c\J	.	.	.	.
2G\	-nes	.	.	2.d\	.	2.g\	.	.
!	!	!LO:TX:a:t=+	!	!	!	!	!	!
!LO:TX:t=P:problem:kreska pseudotaktowa	!	!LO:N:acc=#	!	!	!	!	!	!
2G\	et	2Bn\	mi-	.	.	.	.	.
.	.	.	.	4d\	-mi-	4g\	-mi-	.
=53-	=53-	=53-	=53-	=53-	=53-	=53-	=53-	=53-
2E\	p(ro)-	2c\	-nes	1e\	-nes	1g\	-nes	.
!LO:TX:t=P:problem:kreska pseudotaktowa	!	!	!	!	!	!	!	!
2C/	-p(te)r	2c\	Et	.	.	.	.	.
2.D/	no-	2A/	p(ro)-	2r	.	1r	.	.
.	.	2F/	-p(te)r	2f\	Et	.	.	.
!LO:SIC:v:t=custos B-B-	!	!	!	!	!	!	!	!
4C/	.	.	.	.	.	.	.	.
!LO:PB:g=original	!	!	!	!	!	!	!	!
=54-	=54-	=54-	=54-	=54-	=54-	=54-	=54-	=54-
1.BB-y/	.	1B-y\	no-	2d\	p(ro)-	2r	.	.
!	!	!	!	!	!	!LO:SIC:v:t=custos d	!	!
.	.	.	.	2B-\	-p(te)r	2f\	Et	.
!	!	!	!	!	!	!LO:LB:g=original	!	!
.	.	2B-\	-stram	2Fny/	no-	4d\	pro-	.
.	.	.	.	.	.	4B-/	.	.
2AA/	ſtram	2c\	sa-	4A/	-ſtram	2.f\	.	.
!	!	!	!	!LO:SIC:v:t=custos d	!	!	!	!
.	.	.	.	4A/	sa-	.	.	.
!	!	!	!	!LO:LB:g=original	!	!	!	!
=55-	=55-	=55-	=55-	=55-	=55-	=55-	=55-	=55-
(2BB-/	Sa-	4B-\	-lu-	2d\	.	.	.	.
.	.	4A\	.	.	.	4f\	-pter	.
2C/)	.	4G/	.	2c\	.	2e-X\	n(o)-	.
.	.	4F/	.	.	.	.	.	.
!	!	!	!	!LO:TX:t=P:problem:♯above	!	!	!	!
!	!	!	!	!LO:N:acc=#	!	!	!	!
0GG/	-lu-	0G/	.	2Bn\	.	2e-\	-(st)ram	.
.	.	.	.	1c\	.	4d\	ſa-	.
.	.	.	.	.	.	4c\	.	.
=56-	=56-	=56-	=56-	=56-	=56-	=56-	=56-	=56-
.	.	.	.	.	.	1d\	-lu-	.
!	!	!	!	!LO:TX:t=P:problem:♯above	!	!	!	!
!	!	!	!	!LO:N:acc=#	!	!	!	!
.	.	.	.	2Bn\	-lu-	.	.	.
1C/	-tem	2G/	-tem	1c\	-tem	1eny\	-tem	.
.	.	2G/	de-	.	.	.	.	.
=57-	=57-	=57-	=57-	=57-	=57-	=57-	=57-	=57-
2r	.	4G/	-scen-	1r	.	2r	.	.
.	.	4F/	.	.	.	.	.	.
2C/	de-	4E/	.	.	.	2e\	de-	.
!	!	!LO:SIC:v:t=custos C	!	!	!	!	!	!
.	.	4D/	.	.	.	.	.	.
!	!	!LO:LB:g=original	!	!	!	!	!	!
4C/	-ſcen-	2.C/	.	2r	.	4e\	-ſcen-	.
4BB-/	.	.	.	.	.	4d\	.	.
4AA/	.	.	.	2c\	de-	4c/	.	.
4GG/	.	8D/L	.	.	.	4B-/	.	.
.	.	8E/J	.	.	.	.	.	.
=58-	=58-	=58-	=58-	=58-	=58-	=58-	=58-	=58-
2FFny/	.	2.F/	.	4c\	-scen-	2A/	.	.
.	.	.	.	4B-y\	.	.	.	.
2.F\	.	.	.	4A\	.	2.a\	.	.
.	.	4G/	.	4G/	.	.	.	.
.	.	2A/	.	4F/	.	.	.	.
4E\	.	.	.	4G/	.	4g\	.	.
4D/	.	2.f\	.	2A/	.	4f\	.	.
4C/	.	.	.	.	.	4e\	.	.
=59-	=59-	=59-	=59-	=59-	=59-	=59-	=59-	=59-
2BB-/	.	.	.	2B-\	-dit	2.d\	.	.
.	.	4eny\	.	.	.	.	.	.
*	*	*	*	*	*ij	*	*	*
2.B-\	.	4d\	.	2d\	de-	.	.	.
.	.	4c\	.	.	.	4e\	.	.
.	.	1B-\	.	4d\	-scen-	2f\	.	.
4A\	.	.	.	4c\	.	.	.	.
2.G\	.	.	.	4B-\	.	1g\	-dit	.
.	.	.	.	4A/	.	.	.	.
=60-	=60-	=60-	=60-	=60-	=60-	=60-	=60-	=60-
.	.	2B-\	-dit	2G/	-dit	.	.	.
*	*	*	*	*	*Xij	*	*	*
4G\	dit	.	.	.	.	.	.	.
2F#X\	de	4A/	de	4d\	de	2a\	de	.
.	.	2A/	cae-	4c\	.	.	.	.
1G\	cae-	.	.	1B-\	Cae-	1d\	cae-	.
.	.	8G/L	.	.	.	.	.	.
.	.	8F/J	.	.	.	.	.	.
.	.	2G/	.	.	.	.	.	.
=61-	=61-	=61-	=61-	=61-	=61-	=61-	=61-	=61-
!LO:TX:t=P:problem:kreska pseudotaktowa	!	!LO:TX:t=P:problem:podwójna kreska pseudotaktowa	!	!LO:TX:t=P:problem:podwójna kreska pseudotaktowa	!	!	!	!
1D\;	-lis.	1F#X/;	-lis	1A\;	-lis	1d\;	-lis	.
!	!	!	!	!	!	!LO:PB:g=original	!	!
=62-	=62-	=62-	=62-	=62-	=62-	=62-	=62-	=62-
*M2/1	*	*M2/1	*	*M2/1	*	*M2/1	*	*
*met(C|)	*	*met(C|)	*	*met(C|)	*	*met(C|)	*	*
1D\	Et	1F#X/	ET	1A\	ET	1d\	Et	.
2D/	in	2F#/	in-	2A\	in-	2d\	in-	.
2C/	car-	2G/	-car-	2c\	-car-	2e\	-car-	.
=63-	=63-	=63-	=63-	=63-	=63-	=63-	=63-	=63-
2.Fny\	-na-	1.A\	-na-	4A\	-na-	2f\	-na-	.
.	.	.	.	4B-\	.	.	.	.
.	.	.	.	1c\	.	2c\	.	.
4E\	.	.	.	.	.	.	.	.
2.D/	.	.	.	.	.	2.d\	.	.
!	!	!	!	!LO:N:acc=#	!	!	!	!
.	.	4G/	-tus	2Bn\	-tus	.	.	.
4D/	-t(us)	4F#/	.	.	.	4d\	-t(us)	.
=64-	=64-	=64-	=64-	=64-	=64-	=64-	=64-	=64-
!LO:SIC:v:t=custos GG	!	!	!	!	!	!	!	!
1C/	e(st)	2G/	e(st)	1c\	est	1G/	e(st)	.
.	.	2G/	de	.	.	.	.	.
!LO:LB:g=original	!	!	!	!	!	!	!	!
2r	.	2.B-\	Spi-	1r	.	2r	.	.
2GG/	de	.	.	.	.	2d\	de	.
.	.	4B-\	-ri-	.	.	.	.	.
=65-	=65-	=65-	=65-	=65-	=65-	=65-	=65-	=65-
2.C/	Spi-	2G/	-tu	2r	.	2.e-X\	Spi-	.
.	.	1G/	San-	2G/	de	.	.	.
4C/	-ri-	.	.	.	.	4e-\	-ri-	.
1D\	-tu	.	.	4.B-y/	Spi-	2d\	-tu	.
.	.	.	.	8B-/	-ri-	.	.	.
!	!	!	!	!LO:SIC:v:t=custos G	!	!	!	!
.	.	2F#X/	.	2A/	-tu	1d\	Sa(n)-	.
!	!	!	!	!LO:LB:g=original	!	!	!	!
=66-	=66-	=66-	=66-	=66-	=66-	=66-	=66-	=66-
1E-X\	Sa(n)-	2.G/	.	1.G/	San-	.	.	.
.	.	.	.	.	.	2c\	.	.
.	.	4A/	.	.	.	.	.	.
1D\	-cto	2B-\	.	.	.	2d\	-cto	.
!	!	!	!	!LO:TX:t=P:problem:♯below	!	!	!	!
.	.	2A/	.	2F#X/	.	1d\	ex	.
=67-	=67-	=67-	=67-	=67-	=67-	=67-	=67-	=67-
00r	.	2G/	-cto	2B-\	-cto	.	.	.
.	.	1G/	ex	1B-\	Ex	2d\	Ma-	.
.	.	.	.	.	.	2.g\	-ri-	.
!	!	!LO:SIC:v:t=custos c	!	!	!	!	!	!
.	.	2G/	Ma-	2B-\	Ma-	.	.	.
.	.	.	.	.	.	4f\	.	.
!	!	!LO:LB:g=original	!	!	!	!	!	!
=68-	=68-	=68-	=68-	=68-	=68-	=68-	=68-	=68-
.	.	2c\	-ri-	2e-X\	-ri-	4e-X\	-ia	.
.	.	.	.	.	.	4f\	.	.
.	.	2B-\	-a	2d\	-a	1g\	Vir-	.
*	*	*	*	*lig	*	*	*	*
.	.	2.A/	Vir-	1c\	Vir-	.	.	.
!	!	!	!	!	!	!LO:TX:t=P:problem:♯above	!	!
.	.	.	.	.	.	2f#X\	-gi-	.
.	.	4A/	-gi-	.	.	.	.	.
=69-	=69-	=69-	=69-	=69-	=69-	=69-	=69-	=69-
2GG/	Et	1G/	-ne	2.B-\	.	1g\	-ne	.
1G\	Ho-	.	.	.	.	.	.	.
*	*	*	*	*Xlig	*	*	*	*
.	.	.	.	4B-\	-gi-	.	.	.
.	.	2D/	Et	1A\	-ne	1r	.	.
2F\	mo	1d\	Ho-	.	.	.	.	.
=70-	=70-	=70-	=70-	=70-	=70-	=70-	=70-	=70-
2.E-X\	fa-	.	.	1r	.	2G/	Et	.
.	.	2c\	-mo	.	.	1g\	ho-	.
4E-\	-ct(us)	.	.	.	.	.	.	.
1D\	e(st)	2B-\	fa-	2D/	Et	.	.	.
.	.	2A/	.	1d\	Ho-	2fny\	.	.
=71-	=71-	=71-	=71-	=71-	=71-	=71-	=71-	=71-
*	*ij	*	*	*	*	*	*	*
2GG/	Et	1G/	ctus	.	.	1e-X\	-mo	.
1C/	Ho-	.	.	2c\	.	.	.	.
.	.	2D/	e(st)	2d\	-mo	1d\	.	.
2BB-/	-mo	1G/	Et	2r	.	.	.	.
=72-	=72-	=72-	=72-	=72-	=72-	=72-	=72-	=72-
*lig	*	*	*	*	*ij	*	*	*
1AA/	fa-	.	.	2C/	Et	2.c\	fa-	.
.	.	2F#X/	ho-	1c\	Ho-	.	.	.
.	.	.	.	.	.	4d\	.	.
2.GG/	.	1G/	-mo	.	.	2e-X\	.	.
.	.	.	.	2B-\	.	4d\	.	.
*Xlig	*	*	*ij	*	*	*	*	*
!	!	!	!	!	!	!LO:SIC:v:t=custos f	!	!
4GG/	-ctus	.	.	.	.	4e-\	.	.
!	!	!	!	!	!	!LO:LB:g=original	!	!
=73-	=73-	=73-	=73-	=73-	=73-	=73-	=73-	=73-
1D\	est	2D/	Et	1A\	-mo	1f\	-ctus	.
.	.	1d\	Ho-	.	.	.	.	.
!	!	!	!	!	!	!LO:N:acc=#	!	!
2AA/	Et	.	.	1r	.	1en\	.	.
1A\	Ho-	2c\	.	.	.	.	.	.
=74-	=74-	=74-	=74-	=74-	=74-	=74-	=74-	=74-
*	*	*lig	*	*	*	*	*	*
.	.	1B-\	-mo	1r	.	0d\	eſt	.
1G\	.	.	.	.	.	.	.	.
*	*	*	*	*	*Xij	*	*	*
.	.	1A\	.	2D/	Et	.	.	.
2F\	mo	.	.	1d\	Ho-	.	.	.
=75-	=75-	=75-	=75-	=75-	=75-	=75-	=75-	=75-
*lig	*	*Xlig	*	*	*	*	*	*
1E-X\	fa-	1G/	fa-	.	.	2G/	Et	.
.	.	.	.	8c\L	.	1c\	ho-	.
.	.	.	.	8B-\	.	.	.	.
.	.	.	.	8A\	.	.	.	.
.	.	.	.	8G\J	.	.	.	.
1.D\	.	2F#X/	.	2A\	.	.	.	.
.	.	1G/	.	2B-\	-mo	2B-/	-mo	.
*Xlig	*	*	*	*	*	*	*	*
=76-	=76-	=76-	=76-	=76-	=76-	=76-	=76-	=76-
.	.	.	.	2d\	fa-	2.A/	fac-	.
2D\	-ctus	2F#/	-ctus	2D/	-ctus	.	.	.
.	.	.	.	.	.	4A/	-t(us)	.
!LO:SIC:v:t=custos G	!	!	!	!	!	!LO:N:acc=#	!	!
!	!	!	!	!	!	!LO:TX:t=P:problem:kreska pseudotaktowa	!	!
1GG/;l	e(st).	1G/;l	e(st)	1D/;l	[est]	1Bn/;l	e(st)	.
!LO:LB:g=original	!	!LO:LB:g=original	!	!LO:PB:g=original	!	!	!	!
=77-	=77-	=77-	=77-	=77-	=77-	=77-	=77-	=77-
*M2/1	*Xij	*M2/1	*Xij	*M2/1	*	*M2/1	*	*
*met(C|)	*	*met(C|)	*	*met(C|)	*	*met(C|)	*	*
1.G\	Cru-	1r	.	00r	.	0r	.	.
.	.	1.d\	Cru-	.	.	.	.	.
2D\	-ci-	.	.	.	.	.	.	.
=78-	=78-	=78-	=78-	=78-	=78-	=78-	=78-	=78-
2F\	-fi-	.	.	.	.	1r	.	.
2F\	-xus	2A\	-ci	.	.	.	.	.
4Eny\	e-	2c\	fi-	.	.	2r	.	.
4C/	-ti-	.	.	.	.	.	.	.
4E\	-am	2c\	-xus	.	.	1g\	Cru-	.
4F\	pro-	.	.	.	.	.	.	.
=79-	=79-	=79-	=79-	=79-	=79-	=79-	=79-	=79-
*lig	*	*	*	*	*	*	*	*
1G\	-no-	4B-\	e-	2r	.	.	.	.
.	.	4A\	-ti-	.	.	.	.	.
.	.	4B-\	-am	1d\	Cru-	2d\	-ci-	.
.	.	4G/	pro-	.	.	.	.	.
1D\	.	2A/	-no-	.	.	2f\	-fi-	.
.	.	4G/	.	2A\	-ci-	2f\	-xus	.
.	.	4Fny/	.	.	.	.	.	.
*Xlig	*	*	*	*	*	*	*	*
=80-	=80-	=80-	=80-	=80-	=80-	=80-	=80-	=80-
1C/	-bis	1G/	.	2c\	-fi-	4e\	e-	.
.	.	.	.	.	.	4c\	ti-	.
.	.	.	.	2c\	-xus	4e\	-am	.
.	.	.	.	.	.	4f\	pro-	.
*	*ij	*	*	*	*	*	*	*
1G\	Cru-	2G/	-bis	4B-\	e-	0g\	-no-	.
.	.	.	.	4G/	-ti-	.	.	.
.	.	2d\	pro	4B-\	-am	.	.	.
.	.	.	.	4c\	p(ro)-	.	.	.
=81-	=81-	=81-	=81-	=81-	=81-	=81-	=81-	=81-
2G\	-ci-	4B-\	no-	2d\	-no-	.	.	.
.	.	4G/	.	.	.	.	.	.
2GG/	.	2.B-\	.	2d\	-bis	.	.	.
*	*	*	*	*	*ij	*	*	*
2BB-/	-fi-	.	.	2d\	Cru	1f\	-bis	.
.	.	8A/L	.	.	.	.	.	.
.	.	8G/J	.	.	.	.	.	.
2BB-/	-xus	4F/	.	2D/	-ci-	.	.	.
.	.	4G/	.	.	.	.	.	.
=82-	=82-	=82-	=82-	=82-	=82-	=82-	=82-	=82-
4AA/	e-	2A/	-bis	2F/	-fi-	1r	.	.
4FF/	-ti-	.	.	.	.	.	.	.
4AA/	-am	1c\	Cru-	2F/	-xus	.	.	.
4BB-/	pro-	.	.	.	.	.	.	.
1C/	-no-	.	.	4E/	e-	2r	.	.
.	.	.	.	4C/	-ti-	.	.	.
.	.	2G/	-ci-	4E/	-am	1g\	Cru-	.
.	.	.	.	4F/	pro	.	.	.
=83-	=83-	=83-	=83-	=83-	=83-	=83-	=83-	=83-
*	*	*	*	*lig	*	*	*	*
1GG/	-bis	2B-\	-fix	1G/	-no-	.	.	.
*	*Xij	*	*	*	*	*	*	*
.	.	2B-\	us	.	.	2d\	-ci-	.
1D\	pro-	4A/	e-	1F/	.	2f\	-fi-	.
.	.	4F/	-ti-	.	.	.	.	.
.	.	4A/	-am	.	.	2f\	-x(us)	.
.	.	4B-\	pro-	.	.	.	.	.
*	*	*	*	*Xlig	*	*	*	*
=84-	=84-	=84-	=84-	=84-	=84-	=84-	=84-	=84-
*lig	*	*	*	*	*	*	*	*
1C/	-no-	2c\	-no-	1G/	-bis	4e\	e-	.
.	.	.	.	.	.	4c\	-ti-	.
.	.	4G/	.	.	.	4e\	-a(m)	.
.	.	4A/	.	.	.	4f\	pro-	.
1BB-/	.	4B-\	.	1r	.	1.g\	-no-	.
.	.	4c\	.	.	.	.	.	.
.	.	4d\	.	.	.	.	.	.
.	.	8c\L	.	.	.	.	.	.
!	!	!LO:SIC:v:t=custos c	!	!	!	!	!	!
.	.	8B-\J	.	.	.	.	.	.
*Xlig	*	*	*	*	*Xij	*	*	*
!	!	!LO:LB:g=original	!	!	!	!	!	!
=85-	=85-	=85-	=85-	=85-	=85-	=85-	=85-	=85-
1AA/	.	1c\	.	2r	.	.	.	.
!	!	!	!	!	!	!LO:SIC:v:t=custos g	!	!
.	.	.	.	2A/	sub	2f#X\	.	.
!	!	!	!	!	!	!LO:LB:g=original	!	!
1GG/	-bis	1d\	-bis	4B-\	Pon-	2g\	-bis	.
.	.	.	.	4G/	ti-	.	.	.
.	.	.	.	4B-\	-o	2d\	sub	.
.	.	.	.	4c\	Pi-	.	.	.
=86-	=86-	=86-	=86-	=86-	=86-	=86-	=86-	=86-
2r	.	00r	.	2.d\	-la-	4fny\	Pon-	.
.	.	.	.	.	.	4e\	.	.
2D/	sub	.	.	.	.	4f\	-ti-	.
.	.	.	.	8c\L	.	4g\	.	.
.	.	.	.	8B-\J	.	.	.	.
4F\	Pon-	.	.	2A\	.	2.a\	-o	.
4D\	-ti-	.	.	.	.	.	.	.
*	*	*	*	*lig	*	*	*	*
4F\	-o	.	.	1d\	.	.	.	.
4G\	Pi-	.	.	.	.	8g\L	Pi-	.
.	.	.	.	.	.	8f\J	.	.
=87-	=87-	=87-	=87-	=87-	=87-	=87-	=87-	=87-
*	*	*	*	*	*	*lig	*	*
2.A\	-la-	.	.	.	.	1e\	-la-	.
.	.	.	.	1c\	.	.	.	.
!LO:SIC:v:t=custos F	!	!	!	!	!	!	!	!
4G\	.	.	.	.	.	.	.	.
!LO:LB:g=original	!	!	!	!	!	!	!	!
2F#X\	.	.	.	.	.	1d\	.	.
*	*	*	*	*Xlig	*	*Xlig	*	*
1G\	.	.	.	2B-\	.	.	.	.
=88-	=88-	=88-	=88-	=88-	=88-	=88-	=88-	=88-
!	!	!	!	!LO:SIC:v:t=custos G	!	!	!	!
.	.	2r	.	1A\	.	1d\	-to	.
!LO:TX:t=P:problem:♯above	!	!	!	!	!	!	!	!
2F#X\	.	2A/	Sub	.	.	.	.	.
!	!	!	!	!LO:LB:g=original	!	!	!	!
1G\	.	4B-\	Pon-	2G/	to	1d\	Pi-	.
.	.	4G/	-ti-	.	.	.	.	.
.	.	4B-\	-o	2G/	Pi-	.	.	.
.	.	4c\	Pi-	.	.	.	.	.
=89-	=89-	=89-	=89-	=89-	=89-	=89-	=89-	=89-
0Fny\	.	2d\	-la-	2A/	-la-	0f\	-la-	.
.	.	4c\	.	1B-\	.	.	.	.
.	.	4B-\	.	.	.	.	.	.
.	.	1c\	.	.	.	.	.	.
.	.	.	.	2A/	.	.	.	.
=90-	=90-	=90-	=90-	=90-	=90-	=90-	=90-	=90-
1BB-/	to	2d\	-to	2B-\	-to	1f\	-to	.
.	.	1B-\	paſ-	1d\	paſ-	.	.	.
0r	.	.	.	.	.	0f\	Paſ-	.
.	.	4A/	.	4c\	.	.	.	.
.	.	4G/	.	4B-\	.	.	.	.
=91-	=91-	=91-	=91-	=91-	=91-	=91-	=91-	=91-
.	.	2A/	.	2c\	.	.	.	.
.	.	2B-/	.	2d\	.	.	.	.
2r	.	1F/	-sus	1A\	-sus	1f\	-s(us)	.
1F\	Paſ-	.	.	.	.	.	.	.
=92-	=92-	=92-	=92-	=92-	=92-	=92-	=92-	=92-
*	*	*	*	*	*ij	*	*ij	*
.	.	0r	.	0c\	paſ-	2a\	Paſ-	.
4E\	.	.	.	.	.	4g\	.	.
4D\	.	.	.	.	.	4f\	.	.
2E\	.	.	.	.	.	(2g\	.	.
2F\	.	.	.	.	.	2a\)	.	.
=93-	=93-	=93-	=93-	=93-	=93-	=93-	=93-	=93-
2C/	-s(us)	2r	.	2c\	.	1g\	.	.
*	*	*lig	*	*	*	*	*	*
1C/	paſ-	1c\	paſ-	1e-X\	.	.	.	.
.	.	.	.	.	.	0g\	.	.
!LO:N:acc=#	!	!	!	!	!	!	!	!
4BBn/	.	1d\	.	4d\	.	.	.	.
4AA/	.	.	.	4c\	.	.	.	.
*	*	*Xlig	*	*	*	*	*	*
=94-	=94-	=94-	=94-	=94-	=94-	=94-	=94-	=94-
!LO:TX:t=P:problem:♯above	!	!	!	!	!	!	!	!
!LO:N:acc=#	!	!	!	!	!	!	!	!
2BBn/	.	.	.	2d\	.	.	.	.
2C/	.	2c\	-sus	2e-X\	.	.	.	.
1GG/	-s(us)	2B-\	et	1d\	-sus	2g\	s(us)	.
*	*	*	*	*	*Xij	*	*Xij	*
.	.	1B-\	se-	.	.	1g\	Et	.
=95-	=95-	=95-	=95-	=95-	=95-	=95-	=95-	=95-
1D\	Et	.	.	2.d\	Et	.	.	.
.	.	2A/	-pul-	.	.	2f\	Se-	.
.	.	.	.	4A/	Se-	.	.	.
1C/	ſe-	2G/	.	2B-\	-pul-	1.e-X\	-pul-	.
.	.	2.A/	.	2.c\	.	.	.	.
=96-	=96-	=96-	=96-	=96-	=96-	=96-	=96-	=96-
*lig	*	*	*	*	*	*	*	*
1E-X\	-pul-	.	.	.	.	.	.	.
.	.	4G/	tus	4B-\	.	.	.	.
.	.	4.G/	e(st)	4A/	.	4d\	.	.
.	.	.	.	8G/L	.	4c\	.	.
.	.	8G/	se-	8A/J	.	.	.	.
1.D\	.	4F#X/	-pul-	2B-\	.	1.d\	.	.
.	.	4D/	.	.	.	.	.	.
.	.	1G/	.	4A/	.	.	.	.
.	.	.	.	4G/	.	.	.	.
*Xlig	*	*	*	*	*	*	*	*
=97-	=97-	=97-	=97-	=97-	=97-	=97-	=97-	=97-
.	.	.	.	2.A/	.	.	.	.
2D/	-tu(s)	2F#X/	-tus	.	.	2d\	-tus	.
.	.	.	.	4A/	-tus	.	.	.
!	!	!	!	!LO:N:acc=#	!	!LO:SIC:v:t=custos g	!	!
1GG/;l	e(st)	1G/;l	e(st).	1Bn\;<l	est	1d\;l	est.	.
!	!	!LO:PB:g=original	!	!LO:LB:g=original	!	!LO:LB:g=original	!	!
=98-	=98-	=98-	=98-	=98-	=98-	=98-	=98-	=98-
*M3/1	*	*M3/1	*	*M3/1	*	*M3/1	*	*
*met(O|)	*	*	*	*	*	*met(O|)	*	*
1G\	ET	1B-\	Et	1d\	Et	1g\	ET	.
1E-X\	re-	1B-\	re-	1e-X\	re-	1g\	re-	.
!LO:SIC:v:t=custos B-B-	!	!	!	!	!	!	!	!
1F\	-ſur-	1A\	-ſur-	1c\	-ſur-	1f\	ſur-	.
!LO:LB:g=original	!	!	!	!	!	!	!	!
=99-	=99-	=99-	=99-	=99-	=99-	=99-	=99-	=99-
0BB-/	-re-	0B-\	-re-	0d\	-re-	0f\	-re-	.
1BB-/	-xit	1B-\	-xit	1d\	-xit	1f\	xit	.
=100-	=100-	=100-	=100-	=100-	=100-	=100-	=100-	=100-
*	*ij	*	*ij	*	*ij	*	*ij	*
1B-\	ET	1B-\	Et-	1d\	Et	1f\	ET	.
1G\	re-	1B-\	-re-	1d\	re-	1g\	re-	.
1A\	ſur-	1A\	-ſur-	1c#X\	-ſur-	1e\	-ſur-	.
=101-	=101-	=101-	=101-	=101-	=101-	=101-	=101-	=101-
0D\	-re-	0A\	-re-	0d\	-re-	0f\	-re-	.
1D\	-xit	1A\	-xit	1d\	-xit	1f\	-xit	.
*	*Xij	*	*Xij	*	*Xij	*	*Xij	*
=102-	=102-	=102-	=102-	=102-	=102-	=102-	=102-	=102-
1.BB-/	ter-	1.B-\	ter-	1.d\	ter-	1.f\	ter-	.
2BB-/	-ti-	2B-\	-ti-	2d\	-ti-	2f\	-ti-	.
1AA/	-a	1c\	-a	1c\	-a	1f\	-a	.
=103-	=103-	=103-	=103-	=103-	=103-	=103-	=103-	=103-
1BB-/	di-	1B-\	di-	1d\	di-	1f\	di-	.
1BB-/	-e-	1B-\	-e	1d\	-e	1f\	-e	.
1FF/	se-	1A\	-se-	1c\	se-	1f\	se-	.
=104-	=104-	=104-	=104-	=104-	=104-	=104-	=104-	=104-
0C/	-cun-	0G/	-cun-	0c\	-cun-	0e\	-cun-	.
1AA/	-du(m)	1A\	-dum	1c\	-dum	1f#X\	-du(m)	.
=105-	=105-	=105-	=105-	=105-	=105-	=105-	=105-	=105-
*	*	*	*	*col	*	*	*	*
1GG/	scri-	1B-\	scri-	1d\	Scri-	1g\	Scri-	.
*	*	*	*	*	*	*lig	*	*
0D\	-ptu-	0A\	-ptu-	0d\	-ptu-	1g\	-ptu-	.
!	!	!	!	!	!	!LO:TX:t=P:problem:♯below	!	!
.	.	.	.	.	.	1f#X\	.	.
*	*	*	*	*Xcol	*	*Xlig	*	*
=106-	=106-	=106-	=106-	=106-	=106-	=106-	=106-	=106-
*M2/1	*	*M2/1	*	*M2/1	*	*M2/1	*	*
*met(C|)	*	*met(C|)	*	*met(C|)	*	*met(C|)	*	*
2GG/	-ras	4B-X\	-ras	1d\	-ras	2g\	ras	.
.	.	8G/	&	.	.	.	.	.
.	.	8G/	as-	.	.	.	.	.
4.GG/	Et	8B-\L	-cen-	.	.	2r	.	.
.	.	8A\	.	.	.	.	.	.
.	.	8B-\	.	.	.	.	.	.
8GG/	aſ-	8c\J	.	.	.	.	.	.
8BB-/L	-cen-	4.d\	.	1r	.	4.d\	Et	.
8AA/	.	.	.	.	.	.	.	.
8BB-/	.	.	.	.	.	.	.	.
8C/J	.	16c\LL	.	.	.	8d\	aſ-	.
.	.	16B-\JJ	.	.	.	.	.	.
8D/L	.	4A\	.	.	.	8fny\L	-cen-	.
8C/	.	.	.	.	.	8e\	.	.
8D/	.	4d\	.	.	.	8f\	.	.
8Eny/J	.	.	.	.	.	8g\J	.	.
=107-	=107-	=107-	=107-	=107-	=107-	=107-	=107-	=107-
!	!	!LO:SIC:v:t=custos G	!	!	!	!	!	!
2F\	.	2c\	dit	4.F/	Et	8a\L	.	.
.	.	.	.	.	.	8g\	.	.
.	.	.	.	.	.	8f\	.	.
.	.	.	.	8F/	as-	8e\J	.	.
!	!	!LO:LB:g=original	!	!	!	!	!	!
4F\	-dit	2r	.	8A/L	-cen-	4f\	.	.
.	.	.	.	8G/	.	.	.	.
!	!	!	!	!	!	!LO:SIC:v:t=custos c	!	!
8FF/	&	.	.	8A/	.	4f\	-dit	.
8FF/	as-	.	.	8B-/J	.	.	.	.
*	*	*	*ij	*	*	*	*ij	*
!	!	!	!	!	!	!LO:LB:g=original	!	!
8AA/L	-cen-	1r	.	1c\	.	4.c\	Et	.
8GG/	.	.	.	.	.	.	.	.
8AA/	.	.	.	.	.	.	.	.
!LO:SIC:v:t=custos C	!	!	!	!	!	!	!	!
8BB-/J	.	.	.	.	.	8c\	aſ-	.
!LO:PB:g=original	!	!	!	!	!	!	!	!
8C/L	.	.	.	.	.	8e-X\L	.	.
8BB-/	.	.	.	.	.	8d\	-cen-	.
8C/	.	.	.	.	.	8e-\	.	.
8D/J	.	.	.	.	.	8f\J	.	.
=108-	=108-	=108-	=108-	=108-	=108-	=108-	=108-	=108-
2E-X\	.	4r	.	4B-\	-dit	2g\	.	.
.	.	8G/	et	8B-\	&	.	.	.
!	!	!	!	!LO:SIC:v:t=custos d	!	!	!	!
.	.	8G/	as-	8B-\	as-	.	.	.
!	!	!	!	!LO:LB:g=original	!	!	!	!
2BB-/	dit	8B-\L	-cen-	8d\L	-[scen]-	2f\	-dit	.
*	*ij	*	*	*	*	*	*Xij	*
.	.	8A\	.	8c\	.	.	.	.
.	.	8B-\	.	8d\	.	.	.	.
.	.	8c\J	.	8eny\J	.	.	.	.
4r	.	4.d\	.	4.f\	.	4r	.	.
8BB-/	&	.	.	.	.	8d\	Et	.
8BB-/	as-	8c\	.	8e\	.	8d\	aſ-	.
8D/L	-cen-	2B-\	.	2d\	.	8f\L	-cen-	.
8C/	.	.	.	.	.	8en\	.	.
8D/	.	.	.	.	.	8f\	.	.
8Eny/J	.	.	.	.	.	8g\J	.	.
=109-	=109-	=109-	=109-	=109-	=109-	=109-	=109-	=109-
4.F\	.	8A/L	.	8c\L	.	4a\	.	.
.	.	8G/	.	8B-\	.	.	.	.
.	.	8A/	.	8c\	.	4a\	-dit	.
16E-X\LL	.	8B-/J	.	8d\J	.	.	.	.
16D\JJ	.	.	.	.	.	.	.	.
8C/L	.	4.c\	.	4.e-X\	.	2r	.	.
8BB-/	.	.	.	.	.	.	.	.
8C/	.	.	.	.	.	.	.	.
8D/J	.	16B-\LL	.	16d\LL	.	.	.	.
.	.	16A\JJ	.	16c\JJ	.	.	.	.
4.E-X\	.	8G/L	.	8B-\L	.	4r	.	.
.	.	8Fny/	.	8A\	.	.	.	.
.	.	8G/	.	8B-\	.	4g\	in	.
16D/LL	.	8A/J	.	8c\J	.	.	.	.
16C/JJ	.	.	.	.	.	.	.	.
8BB-/L	.	2B-\	.	2d\	.	8d\L	ca(e)-	.
8AA/	.	.	.	.	.	8c\	.	.
8BB-/	.	.	.	.	.	8d\	.	.
8C/J	.	.	.	.	.	8e\J	.	.
=110-	=110-	=110-	=110-	=110-	=110-	=110-	=110-	=110-
4D/	-dit	4A/	dit	8d\	-dit	2f\	lum	.
*	*Xij	*	*Xij	*	*	*	*	*
.	.	.	.	8A\	in	.	.	.
8F\	in	4A/	in	2d\	Cae-	.	.	.
8F\	c(ae)-	.	.	.	.	.	.	.
(4G\	.	4B-\	cae-	.	.	2e\	-se-	.
4A\)	.	4A/	.	4c#X\	.	.	.	.
2D/	-lum	4A/	-lum	2d\	-lum	2f-X\	.	.
.	.	2A/	se-	.	.	.	.	.
2D/	se-	.	.	2d\	Se-	2f-\	-det	.
.	.	2B-\	-det	.	.	.	.	.
=111-	=111-	=111-	=111-	=111-	=111-	=111-	=111-	=111-
2E-X\	-det	.	.	4G/	-det	2g\	.	.
.	.	2G/	ad	4B-\	ad	.	.	.
2C/	ad	.	.	4.cny\	dex-	2e\	ad	.
.	.	4.A/	dex-	.	.	.	.	.
.	.	.	.	8c\	-te-	.	.	.
4.D/	dex-	.	.	4.A\	-ram	4.fny\	dex-	.
.	.	8A/	-te-	.	.	.	.	.
.	.	2F/	-ram	.	.	.	.	.
8D/	-te-	.	.	8A\	ad	8f\	-te-	.
4BB-/	-ra(m)	.	.	4.B-\	dex-	4.d\	ra(m)	.
4BB-/	ad	2G/	ad	.	.	.	.	.
*	*	*	*	*	*	*	*ij	*
.	.	.	.	8B-\	-te-	8d\	dex-	.
=112-	=112-	=112-	=112-	=112-	=112-	=112-	=112-	=112-
4.C/	dex-	.	.	2G/	-ram	4.e\	-te-	.
.	.	4.c\	dex-	.	.	.	.	.
8C/	-te-	.	.	.	.	8e\	ra(m)	.
*	*	*	*	*	*	*	*Xij	*
!LO:SIC:v:t=custos B-B-	!	!	!	!	!	!	!	!
2AA/	-ra(m)	.	.	2.A/	Pa-	2c/	Pa-	.
.	.	8c\	-te-	.	.	.	.	.
.	.	4A\	-ra(m)	.	.	.	.	.
!LO:LB:g=original	!	!	!	!	!	!	!	!
4.BB-/	Pa-	1D/	P(a-	.	.	(2B-y/	-tris	.
.	.	.	.	2G/	.	.	.	.
8C/	.	.	.	.	.	.	.	.
2D/	.	.	.	.	.	2A/)	.	.
.	.	.	.	4F#X/	.	.	.	.
=113-	=113-	=113-	=113-	=113-	=113-	=113-	=113-	=113-
1GG/	-tris	1D/	-t)ris	2G/	-tris	(4B-/	et	.
.	.	.	.	.	.	4d\)	.	.
.	.	.	.	4r	.	4.g\	I-	.
!	!	!	!	!LO:SIC:v:t=custos d	!	!	!	!
.	.	.	.	4G/	et	.	.	.
!	!	!	!	!	!	!LO:SIC:v:t=custos f	!	!
.	.	.	.	.	.	8g\	-te-	.
!	!	!	!	!LO:LB:g=original	!	!LO:PB:g=original	!	!
0r	.	1r	.	4.d\	I-	4f\	-ru(m)	.
.	.	.	.	.	.	4d\	ven-	.
.	.	.	.	8d\	-te-	.	.	.
.	.	.	.	4c\	-rum	4.e\	-tu-	.
.	.	.	.	4A/	Ven-	.	.	.
.	.	.	.	.	.	8e\	-r(us)	.
=114-	=114-	=114-	=114-	=114-	=114-	=114-	=114-	=114-
.	.	4r	.	4.B-\	-tu-	4d\	e(st)	.
!	!	!LO:SIC:v:t=custos c	!	!	!	!	!	!
.	.	4G/	Et	.	.	4g\	cu(m)	.
.	.	.	.	8B-\	-r(us)	.	.	.
!	!	!LO:LB:g=original	!	!	!	!	!	!
.	.	4.c\	i-	4A/	e(st)	4.g\	glo-	.
.	.	.	.	4A/	cum	.	.	.
!	!	!	!	!	!	!LO:TX:t=P:problem:♯above	!	!
.	.	8c\	-te-	.	.	8f#X\	-ri-	.
4r	.	4B-\	-rum	4.G/	glo-	4g\	-a	.
4GG/	Et	4G/	ven-	.	.	4g\	cu(m)	.
.	.	.	.	8G/	-ri-	.	.	.
4.D/	i-	4.A\	-tu-	2D/	-a	4fn\	glo-	.
.	.	.	.	.	.	8f\	ri-	.
8D/	-te-	8B-\	-r(us)	.	.	8f\	-a	.
=115-	=115-	=115-	=115-	=115-	=115-	=115-	=115-	=115-
4C/	-ru(m)	4c\	e(st)	2r	.	4e\	iu-	.
4AA/	ven-	4c\	cum	.	.	4f\	-di-	.
4.BB-/	-tu-	4B-\	glo-	4r	.	8d\L	-ca-	.
.	.	.	.	.	.	8c\	.	.
.	.	8B-\	-ri-	4D/	cum	8d\	.	.
8BB-/	-r(us)	8B-\	-a	.	.	8e\J	.	.
4FF/	e(st)	2.c\	iu-	4A/	gl(o-	2f\	.	.
4FF/	cum	.	.	8A/	-ri)-	.	.	.
.	.	.	.	8A/	-a	.	.	.
4C/	glo-	.	.	4.E/	iu-	2g\	-re	.
8C/	-ri-	4G/	-di-	.	.	.	.	.
8C/	-a	.	.	8Fny/	-di-	.	.	.
=116-	=116-	=116-	=116-	=116-	=116-	=116-	=116-	=116-
4.BB-/	iu-	4B-\	-ca-	2.G/	-ca-	4.d\	iu-	.
.	.	8A/L	.	.	.	.	.	.
8BB-/	-di-	8G/J	.	.	.	8d\	-di-	.
2AA/	-ca-	2A/	.	.	.	2c/	-ca-	.
.	.	.	.	4F#X/	.	.	.	.
2GG/	-re	2D/	-re	1G/	-re	1B-/	-re	.
2GG/	Vi-	1G/	Vi-	.	.	.	.	.
=117-	=117-	=117-	=117-	=117-	=117-	=117-	=117-	=117-
2AA/	-uos	.	.	0r	.	0r	.	.
2AA/	&	1F/	-uos	.	.	.	.	.
2BB-/	mor-	.	.	.	.	.	.	.
1C/	.	2E-X/	&	.	.	.	.	.
=118-	=118-	=118-	=118-	=118-	=118-	=118-	=118-	=118-
.	.	2.D/	mor-	1r	.	1r	.	.
!LO:N:acc=#	!	!	!	!	!	!	!	!
2BBn/	-tu-	.	.	.	.	.	.	.
.	.	4D/	-tu-	.	.	.	.	.
1C/	-os	1C/	-os	1.c\	Vi-	1c\	Vi-	.
=119-	=119-	=119-	=119-	=119-	=119-	=119-	=119-	=119-
0r	.	0r	.	.	.	1d\	-uos	.
.	.	.	.	1B-\	-uos	.	.	.
.	.	.	.	.	.	2e\	et	.
.	.	.	.	2A\	&	1f\	mor-	.
=120-	=120-	=120-	=120-	=120-	=120-	=120-	=120-	=120-
1r	.	1r	.	2.G/	mor-	.	.	.
.	.	.	.	.	.	2e\	-tu-	.
.	.	.	.	4G/	-tu-	.	.	.
*	*ij	*	*	*	*	*	*	*
1.F\	Vi-	1F/	Vi-	1A\	-os	2f\	-os	.
.	.	.	.	.	.	2A/	Vi-	.
=121-	=121-	=121-	=121-	=121-	=121-	=121-	=121-	=121-
.	.	1G/	-uos	0r	.	2B-/	-uos	.
*	*	*	*	*	*	*	*ij	*
!	!	!	!	!	!	!LO:SIC:v:t=custos c	!	!
1E-X\	-uos	.	.	.	.	2B-/	Vi-	.
.	.	2A\	&	.	.	2c/	-uos	.
*	*	*	*	*	*ij	*	*Xij	*
2D/	&	1B-\	mor-	.	.	2d\	et	.
=122-	=122-	=122-	=122-	=122-	=122-	=122-	=122-	=122-
2.C/	mor-	.	.	1r	.	2.e-X\	mo-	.
.	.	2A\	-tu-	.	.	.	.	.
!LO:SIC:v:t=custos B-B-	!	!	!	!	!	!	!	!
4C/	-tu-	.	.	.	.	4e-\	-tu-	.
!LO:LB:g=original	!	!	!	!	!	!	!	!
1.BB-/	-os	2B-\	-os	2r	.	1d\	-os	.
*	*Xij	*	*ij	*	*	*	*	*
.	.	2D/	Vi-	2Fny/	Vi-	.	.	.
=123-	=123-	=123-	=123-	=123-	=123-	=123-	=123-	=123-
.	.	2Eny/	-uos	2G/	-uos	1c\	Vi-	.
!	!	!LO:SIC:v:t=custos G	!	!LO:SIC:v:t=custos D	!	!	!	!
2AA/	Vi-	2F#X/	&	2A/	et	.	.	.
!	!	!LO:LB:g=original	!	!LO:PB:g=original	!	!	!	!
2GG/	-uos	2G/	mor-	1.D/	mor-	2B-/	uos	.
2FF#X/	&	1A\	.	.	.	2A/	&	.
=124-	=124-	=124-	=124-	=124-	=124-	=124-	=124-	=124-
2.GG/	mor-	.	.	.	.	2.B-/	mor-	.
.	.	2G/	-tu-	2D/	-tu-	.	.	.
4GG/	-tu-	.	.	.	.	4B-/	-tu-	.
1D\	-os	1F#X/	-os	1D/	-os	1A/	-os	.
*	*	*	*Xij	*	*Xij	*	*	*
=125-	=125-	=125-	=125-	=125-	=125-	=125-	=125-	=125-
4.D\	Cu-	1r	.	4.d\	Cu-	1r	.	.
8D\	-i(us)	.	.	8d\	-ius	.	.	.
4Eny\	re-	.	.	4c\	re-	.	.	.
8E\	-gni	.	.	8c\	-gni	.	.	.
8F#X\	n(on)	.	.	8c\	n(on)	.	.	.
8G\	e-	2r	.	4.B-\	e-	2r	.	.
8D\	-rit	.	.	.	.	.	.	.
2G\	fi-	.	.	.	.	.	.	.
.	.	.	.	8B-\	-rit	.	.	.
.	.	4.D/	Cu-	2A/	fi-	4.d\	Cu-	.
!LO:TX:t=P:problem:♯above	!	!	!	!	!	!	!	!
4F#X\	.	.	.	.	.	.	.	.
.	.	8D/	-ius	.	.	8d\	-i(us)	.
=126-	=126-	=126-	=126-	=126-	=126-	=126-	=126-	=126-
4G\	-nis	4E/	re-	2G/	-nis	(2c/	re-	.
4r	.	8E/	-gni	.	.	.	.	.
.	.	8F/	n(on)	.	.	.	.	.
2r	.	8G/	e-	2r	.	2B-/)	.	.
.	.	8D/	-rit	.	.	.	.	.
.	.	2G/	fi-	.	.	.	.	.
*	*ij	*	*	*	*	*	*	*
4.D/	Cu-	.	.	0r	.	4A/	-gni	.
*	*	*	*	*	*	*	*ij	*
.	.	4F#X/	.	.	.	8d\	Cu-	.
8D/	-ius	.	.	.	.	8d\	-ius	.
4C/	re-	2G/	-nis	.	.	4e\	re-	.
8C/	-gni	.	.	.	.	8e\	-gni	.
*	*	*	*ij	*	*	*	*Xij	*
8C/	non	.	.	.	.	8f\	no(n)	.
=127-	=127-	=127-	=127-	=127-	=127-	=127-	=127-	=127-
4.BB-/	e-	4.d\	Cu-	.	.	8g\	e-	.
.	.	.	.	.	.	8d\	-rit	.
.	.	.	.	.	.	2g\	fi-	.
8BB-/	-rit	8d\	-ius	.	.	.	.	.
2AA/	fi-	2c\	re-	.	.	.	.	.
.	.	.	.	.	.	4f#X\	.	.
4GG/	-nis	4B-\	-gni	1r	.	4g\	-nis	.
8GG/	Cu-	4B-\	non	.	.	8g\	Cu-	.
8GG/	-ius	.	.	.	.	8g\	-i(us)	.
4AA/	re-	4.c\	e-	.	.	4fny\	re-	.
8AA/	-gni	.	.	.	.	8f\	-gni	.
8BB-/	non	8d\	-rit	.	.	8f\	n(on)	.
=128-	=128-	=128-	=128-	=128-	=128-	=128-	=128-	=128-
8C/	e-	2c\	fi-	4r	.	2e-X\	e-	.
8GG/	-rit	.	.	.	.	.	.	.
*	*	*	*	*	*ij	*	*	*
2C/	fi-	.	.	8.G/	Cu-	.	.	.
.	.	.	.	16G/	-ius	.	.	.
!	!	!	!	!	!	!LO:SIC:v:t=custos d	!	!
.	.	4d\	-nis	4F/	re-	2d\	-rit	.
*	*	*	*Xij	*	*	*	*	*
!LO:SIC:v:t=custos C	!	!	!	!	!	!	!	!
!LO:N:acc=#	!	!	!	!	!	!	!	!
4BBn/	.	4d\	non	8F/	-gni	.	.	.
.	.	.	.	8F/	n(on)	.	.	.
!LO:LB:g=original	!	!	!	!	!	!LO:LB:g=original	!	!
4C/	-nis	4.c\	e-	4.E-X/	e-	0r	.	.
*	*Xij	*	*	*	*	*	*	*
4G\	n(on)	.	.	.	.	.	.	.
.	.	8G/	-rit	8E-/	-rit	.	.	.
4G\	e-	4B-\	fi-	4D/	fi-	.	.	.
4F#X\	-rit	4A/	.	4D/	-nis	.	.	.
*	*	*	*	*	*Xij	*	*	*
=129-	=129-	=129-	=129-	=129-	=129-	=129-	=129-	=129-
(2B-\	fi-	4G/	-nis	0r	.	.	.	.
.	.	4G/	no(n)	.	.	.	.	.
2A\)	.	4G/	e-	.	.	.	.	.
.	.	4F#X/	-rit	.	.	.	.	.
4.G\	.	4.B-\	fi-	.	.	4r	.	.
.	.	.	.	.	.	4d\	non	.
8Fny\	.	8A/	.	.	.	.	.	.
!	!	!LO:SIC:v:t=custos A	!	!	!	!	!	!
2E\	.	2G/	.	.	.	4d\	e-	.
.	.	.	.	.	.	4c#X\	-rit	.
!	!	!LO:LB:g=original	!	!	!	!	!	!
=130-	=130-	=130-	=130-	=130-	=130-	=130-	=130-	=130-
4D\	-nis	2A/	-nis	4r	.	2f\	fi-	.
4F\	n(on)	.	.	4d\	non	.	.	.
8A\L	e-	2r	.	4d\	e-	2.eny\	-nis	.
8E\	.	.	.	.	.	.	.	.
8A\	.	.	.	4c#X\	-rit	.	.	.
8G\J	.	.	.	.	.	.	.	.
8F\L	.	2r	.	2f\	fi-	.	.	.
8E\	.	.	.	.	.	.	.	.
8F\J	.	.	.	.	.	2d\	Cu-	.
8G\	-rit	.	.	.	.	.	.	.
2A\	fi-	4r	.	2eny\	.	.	.	.
*	*	*	*ij	*	*	*	*	*
!	!	!	!	!	!	!LO:TX:t=P:problem:♯below	!	!
.	.	4A/	non	.	.	4c#X/	-i(us)	.
=131-	=131-	=131-	=131-	=131-	=131-	=131-	=131-	=131-
4D/	-nis	4A/	e-	2d\	-nis	2.f\	re-	.
*	*ij	*	*	*	*	*	*	*
4D/	non	4Fny/	-rit	.	.	.	.	.
4D/	e-	1A\	fi-	2r	.	.	.	.
4C#X/	-rit	.	.	.	.	4.e\	-gni	.
2F\	fi-	.	.	2r	.	.	.	.
.	.	.	.	.	.	8d\	.	.
.	.	.	.	.	.	2d\	n(on)	.
4.E-X\	.	2G/	-nis	4r	.	.	.	.
*	*	*	*	*	*ij	*	*	*
.	.	.	.	4cny\	non	8c\L	er-	.
8F\	.	.	.	.	.	8d\J	.	.
=132-	=132-	=132-	=132-	=132-	=132-	=132-	=132-	=132-
2G\	.	1r	.	4c\	e-	4e-X\	.	.
!	!	!	!	!LO:N:acc=#	!	!	!	!
.	.	.	.	4Bn\	-rit	4d\	-it	.
!	!	!	!	!LO:SIC:v:t=custos d	!	!	!	!
4Cny/	-nis	.	.	2e-X\	fi-	4.d\	fi-	.
4C/	non	.	.	.	.	.	.	.
.	.	.	.	.	.	8c/	.	.
4C/	e-	2r	.	2d\	.	1G/	.	.
4BBn/	-rit	.	.	.	.	.	.	.
(2E-X\	fi-	4r	.	2c\	.	.	.	.
.	.	4G/	non-	.	.	.	.	.
=133-	=133-	=133-	=133-	=133-	=133-	=133-	=133-	=133-
2D/)	.	4G/	-e-	4B-y\	.	1d\	-nis	.
.	.	4F#X/	-rit	4A/	.	.	.	.
4GG/	-nis	2B-\	fi-	2G/	.	.	.	.
4GG/	non	.	.	.	.	.	.	.
4GG/	e-	2.A/	.	2.d\	-nis	1r	.	.
*	*	*	*	*	*Xij	*	*	*
4FF#X/	-rit	.	.	.	.	.	.	.
*	*Xij	*	*	*	*	*	*	*
(2BB-y/	fi-	.	.	.	.	.	.	.
.	.	2G/	.	4d\	non	.	.	.
=134-	=134-	=134-	=134-	=134-	=134-	=134-	=134-	=134-
2AA/	.	.	.	4.c\	e-	4r	.	.
*	*	*	*	*	*	*	*ij	*
.	.	4F#X/	.-	.	.	4c\	n(on)	.
.	.	.	.	8d\	.	.	.	.
2GG/)	.	2G/	.	4e-X\	-rit	4c\	e-	.
.	.	.	.	2d\	fi-	4Bn/	-rit	.
!LO:SIC:v:t=custos C	!	!	!	!	!	!	!	!
1GG/	-nis	1G/	-nis	.	.	(2e-X\	fi-	.
.	.	.	.	2c\	.	.	.	.
.	.	.	.	.	.	2d\)	.	.
!	!	!	!	!LO:N:acc=#	!	!	!	!
.	.	.	.	4Bn\	.	.	.	.
!LO:LB:g=original	!	!	!	!	!	!	!	!
=135-	=135-	=135-	=135-	=135-	=135-	=135-	=135-	=135-
*M3/1	*	*M3/1	*Xij	*M3/1	*	*M3/1	*	*
1r	.	1r	.	1c\	-nis	1c\	-nis	.
*	*	*	*	*	*	*	*Xij	*
1C/	Et	1G/	Et	1c\	Et-	1en\	et	.
1C/	in	1G/	in	1c\	in	1e\	in	.
=136-	=136-	=136-	=136-	=136-	=136-	=136-	=136-	=136-
1.F\	Spi-	1.A\	Spi-	1.c\	Spi-	1.f\	pi-	.
2F\	-(ri)-	2A/	-(ri-	2c\	-(ri-	2f\	-ri-	.
!	!	!	!	!	!	!LO:SIC:v:t=custos f	!	!
1Eny\	-(t)um	1G/	-t)um	1c\	-tu)m	1g\	-tu(m)	.
!	!	!	!	!	!	!LO:LB:g=original	!	!
=137-	=137-	=137-	=137-	=137-	=137-	=137-	=137-	=137-
*	*	*	*	*	*	*col	*	*
2F\	San-	0.A\	S(an-	0c\	San-	0f\	San-	.
2E\	.	.	.	.	.	.	.	.
2F\	.	.	.	.	.	.	.	.
2G\	.	.	.	.	.	.	.	.
1A\	.	.	.	1c\	-ctum	0e\	-ctu(m)	.
=138-	=138-	=138-	=138-	=138-	=138-	=138-	=138-	=138-
1E\	-ctum	1G/	-ctum)	0c\	D(o-	.	.	.
1.G\	D(o-	1.G/	D(o-	.	.	1.d\	Do-	.
!	!	!	!	!LO:N:acc=#	!	!	!	!
.	.	.	.	1Bn\	-mi)-	.	.	.
2G\	-mi)-	2G/	-mi)-	.	.	2d/	-mi-	.
*col	*	*	*	*	*	*Xcol	*	*
=139-	=139-	=139-	=139-	=139-	=139-	=139-	=139-	=139-
0C/	num	1G/	-num	0.c\	-num	0e\	-nu(m)	.
.	.	1.c\	Et	.	.	.	.	.
1.F\	Et	.	.	.	.	1.a\	Et	.
!	!	!LO:SIC:v:t=custos A	!	!	!	!	!	!
.	.	2B-\	Vi-	.	.	.	.	.
!	!	!LO:PB:g=original	!	!	!	!	!	!
=140-	=140-	=140-	=140-	=140-	=140-	=140-	=140-	=140-
*	*	*col	*	*	*	*	*	*
.	.	0A\	-ui-	1.f\	Et	.	.	.
2E\	Vi-	.	.	.	.	2g\	vi-	.
0D\	-ui-	.	.	.	.	0f\	-ui-	.
.	.	.	.	2e-X\	Vi-	.	.	.
.	.	0B-\	-fi-	1d\	-ui-	.	.	.
=141-	=141-	=141-	=141-	=141-	=141-	=141-	=141-	=141-
*	*	*Xcol	*	*col	*	*	*	*
1E-X\	-fi-	.	.	1c\	-fi-	1g\	-fi-	.
*	*	*lig	*	*	*	*	*	*
0F\	-ca(n)-	1B-\	-can-	0c\	-can-	0f\	-can-	.
.	.	1A\	.	.	.	.	.	.
*Xcol	*	*Xlig	*	*Xcol	*	*	*	*
=142-	=142-	=142-	=142-	=142-	=142-	=142-	=142-	=142-
1BB-/	-tem	1B-\	-tem	1d\	-tem	1f\	-tem	.
1BB-/	qui	1B-\	qui	1d\	qui	1f\	qui	.
1AA/	ex	1c\	ex	1c\	ex	1f\	ex	.
=143-	=143-	=143-	=143-	=143-	=143-	=143-	=143-	=143-
0BB-/	Pa-	0B-\	P(a-	0d\	P(a-	0f\	Pa-	.
!	!	!	!	!LO:SIC:v:t=custos B-	!	!	!	!
1F\	-tre	1A\	-t)re	1c\	-t)re	1f\	-tre	.
!	!	!	!	!LO:LB:g=original	!	!	!	!
=144-	=144-	=144-	=144-	=144-	=144-	=144-	=144-	=144-
1.G\	Fi-	1.G/	Fi-	1.B-y\	Fi-	1.d\	fi-	.
2G\	-li-	2G/	-lio-	2B-\	-li-	2d\	-li-	.
1D\	-o-	1Fny/	-que	1A\	-o-	1d\	-o-	.
=145-	=145-	=145-	=145-	=145-	=145-	=145-	=145-	=145-
1.E-X\	-que	1.E-X/	pro-	1.G/	-que	1.B-/	-que	.
2C/	p(ro)-	2G/	.	2c\	pro-	2e-X\	pro-	.
!LO:SIC:v:t=custos C	!	!	!	!LO:N:acc=#	!	!	!	!
1G\	-ce-	1G/	-ce-	1Bn\	-ce-	1d\	-ce-	.
!LO:PB:g=original	!	!	!	!	!	!	!	!
=146-	=146-	=146-	=146-	=146-	=146-	=146-	=146-	=146-
1C/	-dit	1G/	-dit	1c\	-dit	1en\	-dit	.
1C/	qui	1c\	qui	1eny\	qui	1g\	qui	.
1AA/	cu(m)	1c\	cu(m)	1f\	cum	1a\	cu(m)	.
=147-	=147-	=147-	=147-	=147-	=147-	=147-	=147-	=147-
1BB-/	Pa-	1B-\	P(a)-	1d\	P(a)-	1f\	P(a-	.
1BB-/	-tre	1B-\	-(t)re	1d\	-tre	1f\	-t)re	.
1GG/	&	1B-\	&	1e-X\	et	1g\	&	.
=148-	=148-	=148-	=148-	=148-	=148-	=148-	=148-	=148-
1.BB-/	Fi-	1.B-\	Fi-	1.d\	Fi-	1.f\	fi-	.
2BB-/	-li-	2B-\	-li-	2d\	-li-	2f\	-li-	.
*	*	*	*	*col	*	*	*	*
!	!	!	!	!	!	!LO:SIC:v:t=custos f	!	!
1BB-/	-o	1B-\	-o	1d\	-o	1f\	-o	.
*	*	*	*	*Xcol	*	*	*	*
!	!	!	!	!	!	!LO:LB:g=original	!	!
=149-	=149-	=149-	=149-	=149-	=149-	=149-	=149-	=149-
*M2/1	*	*M2/1	*	*M2/1	*	*M2/1	*	*
*met(C|)	*	*met(C|)	*	*met(C|)	*	*met(C|)	*	*
4.B-\	si-	4.B-\	Si-	4.d\	si-	4.f\	si-	.
8A\	-mul	8c\	-mul	8c\	-mul	8f\	-mul	.
4G\	a-	4B-\	a-	4e-X\	a-	4g\	a-	.
4B-\	-do-	4B-\	-do-	4d\	-do-	4f\	-do-	.
2F\	-ra-	2A\	-ra-	2c\	-ra-	2f\	-ra-	.
4F\	-tur	4A\	-t(ur)	4c\	-tur	4f\	-t(ur)	.
4F\	&	4A\	&	4c\	et	4f\	&	.
=150-	=150-	=150-	=150-	=150-	=150-	=150-	=150-	=150-
4.B-\	Co(n)-	4.B-\	con	4.d\	(con)-	4.f\	(con)-	.
8A\	-glo-	8c\	glo-	8c\	-glo-	8f\	-glo-	.
4G\	-ri-	4B-\	-ri-	4e-X\	-ri-	4g\	-ri-	.
!	!	!LO:SIC:v:t=custos B-	!	!	!	!	!	!
4F\	-fi-	4A\	-fi-	4d\	-fi-	4a\	-fi-	.
!	!	!LO:LB:g=original	!	!	!	!	!	!
(2G\	-ca-	2B-\	-ca-	8e-\L	-ca-	(2g\	-ca-	.
.	.	.	.	8d\J	.	.	.	.
.	.	.	.	2d\	.	.	.	.
2A\)	.	2A/	.	.	.	2e\)	.	.
.	.	.	.	4c#X\	.	.	.	.
=151-	=151-	=151-	=151-	=151-	=151-	=151-	=151-	=151-
2D/	-tur	2A/	-tur	4d\	-tur	2f\	-tur	.
.	.	.	.	2d\	qui	.	.	.
2D/	qui	2r	.	.	.	2f\	qui	.
.	.	.	.	2A\	lo-	.	.	.
2AA/	lo-	1r	.	.	.	2c\	lo-	.
.	.	.	.	4.cny\	-cu-	.	.	.
4.C/	-cu-	.	.	.	.	4.e\	-cu-	.
.	.	.	.	8c\	-t(us)	.	.	.
.	.	.	.	4G/	e(st)	.	.	.
8C/	-t(us)	.	.	.	.	8e\	-t(us)	.
=152-	=152-	=152-	=152-	=152-	=152-	=152-	=152-	=152-
!	!	!	!	!LO:LB:g=original	!	!	!	!
!	!	!	!	!LO:SIC:v:t=custos d	!	!	!	!
4GG/	eſt	2.B-\	Qui	2r	.	2d\	est	.
2G\	qui	.	.	.	.	.	.	.
.	.	.	.	4r	.	4r	.	.
!LO:SIC:v:t=custos F	!	!	!	!	!	!	!	!
4D/	lo-	4F/	lo-	2d\	Qui	2f\	qui	.
!LO:LB:g=original	!	!	!	!	!	!	!	!
4.F\	-cu-	4.A/	-cu-	.	.	.	.	.
.	.	.	.	4A\	lo-	4c\	Lo-	.
8F\	-tus	8A/	-t(us)	.	.	.	.	.
2C/	eſt	2G/	e(st)	4.c\	-cu-	4.e-X\	-cu-	.
.	.	.	.	8c\	-t(us)	8e-\	-tu(s)	.
=153-	=153-	=153-	=153-	=153-	=153-	=153-	=153-	=153-
2.E-X\	per	2.G/	per	4B-y\	e(st)	4e-X\	est	.
.	.	.	.	2B-\	per	2e-\	per	.
4D/	Pro-	4B-\	Pro-	4d\	Pro-	4f\	Pro-	.
1F\	-phe-	4A\	.	4d\	-phe-	1f\	-phe-	.
.	.	2B-\	phe-	8c\L	.	.	.	.
.	.	.	.	8B-\J	.	.	.	.
.	.	.	.	2c\	.	.	.	.
.	.	4A\	.	.	.	.	.	.
=154-	=154-	=154-	=154-	=154-	=154-	=154-	=154-	=154-
2BB-/	-tas	2B-\	-tas	4d\	-tas	2f\	-tas	.
.	.	.	.	4d\	Et	.	.	.
2r	.	4r	.	4f\	U-	2r	.	.
.	.	4A\	Et	4c\	-nam	.	.	.
2r	.	4c\	V-	4e-X\	S(an-	0r	.	.
.	.	4G/	-nam	8e-\	-ctam)	.	.	.
.	.	.	.	8e-\	Ca-	.	.	.
2D/	Et	2B-\	San-	4.d\	-tho-	.	.	.
.	.	.	.	8d\	-li-	.	.	.
=155-	=155-	=155-	=155-	=155-	=155-	=155-	=155-	=155-
4F\	u-	4A\	-cta(m)	2c\	-cam	.	.	.
4C/	-nam	4A\	Ca-	.	.	.	.	.
2E-X\	Sa(n)-	8G/L	-tho-	8B-\L	San-	.	.	.
.	.	8F/	.	8A\	.	.	.	.
.	.	8G/	.	8B-\	.	.	.	.
.	.	8A/J	.	8c\J	.	.	.	.
4BB-/	-ctam	4.B-\	.	2.d\	.	4r	.	.
*	*ij	*	*	*	*	*	*	*
4BB-/	Et	.	.	.	.	4d\	et	.
.	.	8B-\	-li-	.	.	.	.	.
4D/	u-	2A/	-cam	.	.	4.f\	U-	.
4AA/	-nam	.	.	2c\	-ctam	.	.	.
!	!	!	!	!	!	!LO:SIC:v:t=custos e-	!	!
.	.	.	.	.	.	8c\	-nam	.
!	!	!	!	!	!	!LO:PB:g=original	!	!
=156-	=156-	=156-	=156-	=156-	=156-	=156-	=156-	=156-
4C/	San-	2G/	Ca-	.	.	4e-X\	san-	.
8GG/	-ctam	.	.	4B-\	Ca-	8e-\	-ctam	.
*	*Xij	*	*	*	*	*	*	*
8GG/	Ca-	.	.	.	.	8e-\	Ca-	.
4.BB-/	-tho-	4.F/	-tho-	4.B-\	-tho-	8d\L	-tho-	.
.	.	.	.	.	.	8c\	.	.
.	.	.	.	.	.	8d\J	.	.
8BB-/	-li-	8F/	-li-	8B-\	-li-	8e-\	-li-	.
4FF/	-cam	4F/	-cam	4c\	-cam	4f\	ca(m)	.
4F\	&	4A/	et	4F/	et	4c\	et	.
4F\	A-	4A/	A-	4F/	A-	4d\	A-	.
4E-X\	-po-	4G/	-p(o)-	4G/	-po-	4e-\	-po-	.
=157-	=157-	=157-	=157-	=157-	=157-	=157-	=157-	=157-
4.D/	-ſto-	4.F/	-(sto)-	8A/L	ſto-	4.f\	-sto-	.
.	.	.	.	8G/	.	.	.	.
.	.	.	.	8A/J	.	.	.	.
8D/	-li-	8F/	-li-	8B-/	li-	8f\	-li-	.
4C/	-ca(m)	4G/	-cam	2.c\	-cam	4e-X\	-cam	.
4C/	Ec-	4A/	Ec-	.	.	4e-\	Ec-	.
2.D/	-cle-	4F#X/	.	.	.	2.d\	-cle-	.
!	!	!	!	!LO:SIC:v:t=custos A	!	!	!	!
.	.	2G/	-cle-	4B-\	Ec-	.	.	.
!	!	!	!	!LO:LB:g=original	!	!	!	!
.	.	.	.	4.A/	-cle-	.	.	.
!LO:SIC:v:t=custos GG	!	!LO:SIC:v:t=custos G	!	!	!	!	!	!
4D/	-ſi-	4F#X/	-ſi-	.	.	4d\	-ſi-	.
.	.	.	.	8A/	ſi-	.	.	.
!LO:LB:g=original	!	!LO:LB:g=original	!	!	!	!	!	!
=158-	=158-	=158-	=158-	=158-	=158-	=158-	=158-	=158-
!	!	!	!	!LO:N:acc=#	!	!	!	!
2GG/	-am	2G/	-am	2Bn\	-am	2d\	-am	.
2GG/	Con-	2G/	Con-	2B\	Con-	2d\	Con-	.
2.C/	-fi-	2.G/	-fi-	2.c\	-fi-	2.e-X\	-ſi-	.
4C/	-te-	4G/	-te-	4c\	-te-	4e-\	-te-	.
=159-	=159-	=159-	=159-	=159-	=159-	=159-	=159-	=159-
2GG/	-or	4G/	-or	2B-X\	-or	2d\	-or	.
.	.	4d\	v-	.	.	.	.	.
2r	.	4B-\	-nu(m)	2d\	U-	1r	.	.
.	.	4F#X/	ba-	.	.	.	.	.
4r	.	4G/	-pti-	4B-\	-num	.	.	.
4D/	V-	4A/	.	4F#X/	Ba-	.	.	.
4BB-/	-num	8B-/L	.	4G/	-pti	4r	.	.
.	.	8c/J	.	.	.	.	.	.
4FF#X/	ba-	2d\	.	4A/	.	4d\	V-	.
=160-	=160-	=160-	=160-	=160-	=160-	=160-	=160-	=160-
1GG/	-pti-	.	.	(4G/	.	4B-/	-num	.
.	.	4c\	.	4A/)	.	4F#X/	Ba-	.
!	!	!LO:TX:t=P:problem:mixed beam	!	!	!	!	!	!
.	.	8B-\L	.	2B-/	.	2G/	-pti-	.
.	.	8c\	.	.	.	.	.	.
.	.	8d\	.	.	.	.	.	.
.	.	8D/J	.	.	.	.	.	.
2D/	-ſma	4D/	sma	2A/	sma	2A/	-ſma	.
.	.	8.D/	in	.	.	.	.	.
.	.	16D/	re-	.	.	.	.	.
4.D/	in	[2d\	-miſ-	4.F#X/	in	2r	.	.
8D/	re-	.	.	8F#/	re-	.	.	.
=161-	=161-	=161-	=161-	=161-	=161-	=161-	=161-	=161-
4.G\	-miſ-	8d\]	.	4.B-/	-mi-	4.d\	in	.
.	.	8c\	-si-	.	.	.	.	.
.	.	2B-\	-o-	.	.	.	.	.
8F\	-si-	.	.	8A/	-ſi-	8d\	re-	.
4.E-X\	-o-	.	.	4G/	-o-	4g\	-mi-	.
.	.	4B-\	-nem	4d\	-nem	4fn\	-ſio-	.
8D/	-ne(m)	.	.	.	.	.	.	.
4.E-\	pec-	4.e-X\	pec-	8c\	pec-	4.g\	-ne(m)	.
.	.	.	.	8B-\	-ca-	.	.	.
.	.	.	.	2B-\	-to-	.	.	.
8E-\	-ca-	8d\	-ca-	.	.	8g\	.	.
2F\	-to-	2c\	-to-	.	.	4.f\	pec-	.
.	.	.	.	4A/	.	.	.	.
!	!	!	!	!	!	!LO:SIC:v:t=custos f	!	!
.	.	.	.	.	.	8f\	-ca-	.
!	!	!	!	!	!	!LO:LB:g=original	!	!
=162-	=162-	=162-	=162-	=162-	=162-	=162-	=162-	=162-
4BB-/	-ru(m)	4d\	-rum	2B-\	-ru(m)	8f\L	-to-	.
.	.	.	.	.	.	8e-X\	.	.
2B-\	Et	2d\	et	.	.	8d\	.	.
.	.	.	.	.	.	8c\J	.	.
.	.	.	.	2r	.	8d\L	.	.
.	.	.	.	.	.	8e-\J	.	.
4A\	ex-	4c\	ex-	.	.	2f\	.	.
2G\	-pe-	2B-\	-pe-	2r	.	.	.	.
.	.	.	.	.	.	4eny\	.	.
4F\	-cto	4A/	-cto	4r	.	4f\	ru(m)	.
*	*ij	*	*ij	*	*	*	*	*
2F\	Et	2A/	et	8Fny/L	Et	2f\	et	.
.	.	.	.	8G/J	.	.	.	.
=163-	=163-	=163-	=163-	=163-	=163-	=163-	=163-	=163-
.	.	.	.	8A/L	Ex-	.	.	.
.	.	.	.	8B-/J	.	.	.	.
4C/	ex-	4G/	ex	2c\	-pe-	4e-X\	ex-	.
2G\	-pe-	2G/	-pe-	.	.	2d\	-pe-	.
!	!	!	!	!LO:N:acc=#	!	!	!	!
!	!	!	!	!LO:TX:t=P:problem:♯above	!	!	!	!
.	.	.	.	4Bn\	.	.	.	.
!	!	!	!	!LO:SIC:v:t=custos d	!	!LO:N:acc=#	!	!
2C/	-cto	4G/	-cto	1c\	-cto	2en\	-cto	.
*	*Xij	*	*Xij	*	*	*	*	*
.	.	4.c\	re-	.	.	.	.	.
4.F\	re-	.	.	.	.	4.a\	re-	.
.	.	8B-\	-ſur-	.	.	.	.	.
.	.	4.A/	-re-	.	.	.	.	.
8Eny\	ſur-	.	.	.	.	8g\	-ſur-	.
!	!	!	!	!LO:PB:g=original	!	!	!	!
=164-	=164-	=164-	=164-	=164-	=164-	=164-	=164-	=164-
4.D/	-re-	.	.	4r	.	4.f\	-re-	.
.	.	8G/	-cti-	.	.	.	.	.
.	.	8Fny/L	-o-	4.d\	re-	.	.	.
!LO:SIC:v:t=custos BB-	!	!	!	!	!	!	!	!
8C/	-cti-	16G/L	.	.	.	8e\	(cti)-	.
.	.	16A/JJ	.	.	.	.	.	.
!LO:LB:g=original	!	!	!	!	!	!	!	!
4.C/	-o-	4B-\	.	.	.	4.d\	-o-	.
.	.	.	.	8c\	-ſur-	.	.	.
.	.	4F/	-nem	4.B-y\	-re-	.	.	.
8AA/	-nem	.	.	.	.	8c/	-nem	.
2GG/	mor-	2G/	mor-	.	.	4.B-/	mor-	.
.	.	.	.	8A/	-cti-	.	.	.
.	.	.	.	8B-/	-o-	.	.	.
.	.	.	.	8G/	-nem	8c/	-tu-	.
2FFny/	-tu-	2A/	-tu-	4.A/	mor-	1d\	-o-	.
.	.	.	.	8D/	-tu-	.	.	.
=165-	=165-	=165-	=165-	=165-	=165-	=165-	=165-	=165-
1EE-X/	-o-	1G/	-o-	2B-\	-o-	.	.	.
.	.	.	.	4A/	.	2c/	.	.
.	.	.	.	4G/	.	.	.	.
1DD/	-rum	1F#X/	-rum.	2A/	-rum	1d\	rum	.
.	.	.	.	2A/	Et	.	.	.
=166-	=166-	=166-	=166-	=166-	=166-	=166-	=166-	=166-
0r	.	0r	.	2B-\	Vi-	2d\	Et	.
.	.	.	.	4A/	-tam	2f\	Vi-	.
.	.	.	.	4F/	ven-	.	.	.
.	.	.	.	4G/	-tu-	4e\	-tam	.
.	.	.	.	4A/	-ri	4c\	ven-	.
.	.	.	.	4B-/	sae-	4d\	-tu-	.
.	.	.	.	8A/L	.	4e\	-ri	.
.	.	.	.	8G/J	.	.	.	.
=167-	=167-	=167-	=167-	=167-	=167-	=167-	=167-	=167-
2D/	Et	2r	.	8A/L	.	(2f\	sae-	.
.	.	.	.	8D/J	.	.	.	.
.	.	.	.	2d\	.	.	.	.
2E-X\	Vi-	2G/	Et	.	.	4.g\)	.	.
.	.	.	.	4c\	.	.	.	.
.	.	.	.	.	.	8g\	-cu-	.
4D/	-tam	2B-\	Vi-	2d\	.	2f\	-li	.
4BB-/	ven-	.	.	.	.	.	.	.
4C/	-tu-	4A\	-tam	4e-X\	.	2r	.	.
4D/	-ri	4F#X/	ven-	2d\	.	.	.	.
=168-	=168-	=168-	=168-	=168-	=168-	=168-	=168-	=168-
2E-X\	sae-	4.G/	-tu-	.	.	1r	.	.
.	.	.	.	4c\	-cu-	.	.	.
.	.	8A\	.	.	.	.	.	.
4D/	.	2B-\	.	2d\	-li	.	.	.
2G\	.	.	.	.	.	.	.	.
*	*	*	*	*	*	*	*ij	*
.	.	2A\	-ri	0r	.	2d\	Et	.
4F\	.	.	.	.	.	.	.	.
4E-X\	.	4.G/	sae-	.	.	2e-X\	vi-	.
8D\L	.	.	.	.	.	.	.	.
8C\J	.	8A/	.	.	.	.	.	.
=169-	=169-	=169-	=169-	=169-	=169-	=169-	=169-	=169-
2G\	.	4B-\	.	.	.	4d\	-tam	.
.	.	4G/	.	.	.	4B-/	ven-	.
4F\	.	4A/	.	.	.	4c/	-tu-	.
!	!	!	!	!	!	!LO:SIC:v:t=custos es	!	!
8E-X\L	.	4B-\	.	.	.	4d\	-ri	.
8D\J	.	.	.	.	.	.	.	.
!	!	!	!	!	!	!LO:LB:g=original	!	!
4.C/	.	8c\L	.	2r	.	8e-X\L	sae-	.
.	.	8d\	.	.	.	8f\J	.	.
.	.	8e-X\	.	.	.	2g\	.	.
8BB-/	.	8d\J	.	.	.	.	.	.
4.AA/	.	4.c\	.	2A/	Et	.	.	.
.	.	.	.	.	.	4f#X\	-cu-	.
8AA/	cu-	8c\	-cu-	.	.	.	.	.
=170-	=170-	=170-	=170-	=170-	=170-	=170-	=170-	=170-
4GG/	-li	2.d\	-li	2B-\	Vi-	2g\	-li	.
4BB-/	ven-	.	.	.	.	.	.	.
8D\L	-tu-	.	.	4A/	-ta(m)	2r	.	.
8Eny\J	.	.	.	.	.	.	.	.
!	!	!LO:SIC:v:t=custos B-	!	!	!	!	!	!
2F\	.	4A/	Ven-	4F/	Ven-	.	.	.
!	!	!LO:LB:g=original	!	!	!	!	!	!
.	.	4.B-\	-tu-	4.G/	-tu-	2r	.	.
4E-X\	.	.	.	.	.	.	.	.
!	!	!	!	!LO:SIC:v:t=custos B-	!	!	!	!
.	.	8c\	.	8A/	-ri	.	.	.
!	!	!	!	!LO:LB:g=original	!	!	!	!
4.D/	.	4.d\	.	8B-\L	sae-	2d\	Et	.
.	.	.	.	8F\J	.	.	.	.
.	.	.	.	2B-\	-cu-	.	.	.
!LO:SIC:v:t=custos C	!	!	!	!	!	!	!	!
8D/	-ri	8d\	-ri	.	.	.	.	.
!LO:LB:g=original	!	!	!	!	!	!	!	!
=171-	=171-	=171-	=171-	=171-	=171-	=171-	=171-	=171-
4.C/	Sae-	8G\L	sae-	.	.	2e-X\	vi-	.
.	.	16A\L	.	.	.	.	.	.
.	.	16B-\JJ	.	.	.	.	.	.
.	.	8.c\	.	4A\	.	.	.	.
8C/	-cu-	.	.	.	.	.	.	.
.	.	16c\	-cu-	.	.	.	.	.
4BB-/	-li	2Fny/	-li	4B-\	-li	4d\	-tam	.
4B-\	Ven-	.	.	4d\	Et	4B-/	ven-	.
4B-\	-tu-	2r	.	2e-X\	Vi-	4.c/	-tu-	.
4A\	-ri	.	.	.	.	.	.	.
.	.	.	.	.	.	8c/	-ri	.
4.B-\	sae-	4r	.	4d\	-ta(m)	8d\L	sae-	.
.	.	.	.	.	.	8c\	.	.
.	.	4B-\	Ven-	4B-\	Ven-	8d\	.	.
8B-\	-cu-	.	.	.	.	8e-\J	.	.
=172-	=172-	=172-	=172-	=172-	=172-	=172-	=172-	=172-
4F\	-li	4A\	-tu-	4c\	-tu-	(2f\	.	.
*	*ij	*	*	*	*	*	*	*
!	!	!LO:N:acc=#	!	!	!	!	!	!
4D/	ven-	4Bn\	-ri-	4d\	-ri	.	.	.
4.C/	-tu-	8c\L	-sae-	2.G/	sae-	4.e-X\)	.	.
.	.	8G\J	.	.	.	.	.	.
.	.	2c\	.	.	.	.	.	.
8C/	-ri	.	.	.	.	8e-\	-cu-	.
4.G\	sae-	.	.	.	.	4d\	-li	.
!	!	!LO:TX:t=P:problem:♯above	!	!	!	!	!	!
!	!	!LO:N:acc=#	!	!	!	!	!	!
.	.	4BnX\	-cu-	4G/	-cu-	4d\	Et	.
8G\	-cu-	.	.	.	.	.	.	.
2C/	-li	2c\	-li	4G/	-li	2e-X\	vi-	.
*	*Xij	*	*	*	*ij	*	*	*
.	.	.	.	4G/	Et	.	.	.
=173-	=173-	=173-	=173-	=173-	=173-	=173-	=173-	=173-
2D/	Et	0r	.	2B-\	Vi-	4d\	-tam	.
.	.	.	.	.	.	4B-/	ven-	.
2F\	Vi-	.	.	4A/	-ta(m)	4c/	-tu-	.
.	.	.	.	4F/	Ven-	4d\	-ri	.
4E-X\	-ta(m)	.	.	4G/	-tu-	2e-X\	sae-	.
4C/	ven-	.	.	4A/	.	.	.	.
8D/L	-tu	.	.	4.B-/	.	4.d\	.	.
8C/	.	.	.	.	.	.	.	.
8D/	.	.	.	.	.	.	.	.
8E-/J	.	.	.	8B-/	-ri	8d\	-cu-	.
=174-	=174-	=174-	=174-	=174-	=174-	=174-	=174-	=174-
8F\L	.	2A\	Ven-	4.A/	sae-	1c\	-li	.
8C\J	.	.	.	.	.	.	.	.
2F\	.	.	.	.	.	.	.	.
.	.	.	.	8A/	-cu-	.	.	.
.	.	(2c\	-tu-	2G/	-li	.	.	.
*	*	*	*	*	*Xij	*	*	*
8Eny\L	.	.	.	.	.	.	.	.
8F\J	.	.	.	.	.	.	.	.
2.G\	.	4B-y\)	.	2r	.	1r	.	.
.	.	4G/	-ri	.	.	.	.	.
.	.	4.A/	sae-	2d\	Et	.	.	.
4F#X\	ri	.	.	.	.	.	.	.
.	.	8A/	-cu-	.	.	.	.	.
=175-	=175-	=175-	=175-	=175-	=175-	=175-	=175-	=175-
4.G\	sae-	4G/	-li	2B-\	Vi-	1r	.	.
.	.	4d\	Et	.	.	.	.	.
8G\	-cu-	.	.	.	.	.	.	.
4D/	-li	2f\	Vi-	4A/	-ta(m)	.	.	.
!LO:SIC:v:t=custos C	!	!	!	!	!	!	!	!
4D/	Ven-	.	.	4F/	Ven-	.	.	.
!LO:PB:g=original	!	!	!	!	!	!	!	!
4C/	-tu-	4eny\	-tam	4G/	-tu-	2r	.	.
4AA/	-ri	4c\	ven-	4A/	-ri	.	.	.
4.GG/	sae-	8d\L	-tu-	4.B-\	sae-	2d\	Et	.
.	.	8c\J	.	.	.	.	.	.
.	.	4B-\	-ri	.	.	.	.	.
8GG/	-cu-	.	.	8B-\	-cu-	.	.	.
=176-	=176-	=176-	=176-	=176-	=176-	=176-	=176-	=176-
4D/	-li	2A/	Vi-	4.d\	-li	2f\	vi-	.
4D/	Ven-	.	.	.	.	.	.	.
*	*	*	*	*	*ij	*	*	*
.	.	.	.	8d\	Et	.	.	.
4.A\	-tu-	2A/	-tam	4c\	Vi-	4eny\	-tam	.
.	.	.	.	4eny\	.	4c\	ven-	.
8G\	.	.	.	.	.	.	.	.
4F\	.	4A/	Ven-	4f\	.	4d\	-tu-	.
4E\	.	4G/	.	8c#X\	-ta(m)	4e\	-ri	.
.	.	.	.	8c#\	Ven-	.	.	.
4D/	.	2.A/	-tu-	4d\	-tu-	4f\	sae-	.
!	!	!	!	!LO:SIC:v:t=custos f	!	!	!	!
4C#X/	-ri	.	.	4e\	-ri	2e\	.	.
!	!	!	!	!LO:LB:g=original	!	!	!	!
=177-	=177-	=177-	=177-	=177-	=177-	=177-	=177-	=177-
8D\L	sae-	.	.	2f\	sae-	.	.	.
8E\	.	.	.	.	.	.	.	.
!	!	!LO:SIC:v:t=custos A	!	!	!	!	!	!
8F\	.	4A/	-ri	.	.	2d\	.	.
8G\J	.	.	.	.	.	.	.	.
!	!	!LO:PB:g=original	!	!	!	!	!	!
4.A\	-cu-	4.A/	sae-	4.e\	.	.	.	.
!	!	!	!	!	!	!LO:SIC:v:t=custos d	!	!
!	!	!	!	!	!	!LO:TX:t=P:problem:♯above	!	!
.	.	.	.	.	.	4c#X\	-cu-	.
8A\	.	8A/	-cu-	8e\	-cu-	.	.	.
!	!	!	!	!	!	!LO:LB:g=original	!	!
2D/	-li	2A/	-li	2d\	-li	2d\	-li	.
*	*	*	*	*	*Xij	*	*Xij	*
8GG/L	A-	2B-/	A-	2r	.	2r	.	.
8AA/	.	.	.	.	.	.	.	.
8BB-/	.	.	.	.	.	.	.	.
8Cny/J	.	.	.	.	.	.	.	.
=178-	=178-	=178-	=178-	=178-	=178-	=178-	=178-	=178-
8D\L	.	4A/	.	1r	.	1r	.	.
8E\	.	.	.	.	.	.	.	.
8F\	.	4d\	.	.	.	.	.	.
8D\J	.	.	.	.	.	.	.	.
8E\L	.	4c\	.	.	.	.	.	.
8F\J	.	.	.	.	.	.	.	.
2G\	.	4B-\	.	.	.	.	.	.
.	.	2A/	.	2A\	A-	2d\	A-	.
!LO:TX:t=P:problem:♯above	!	!	!	!	!	!	!	!
4F#X\	.	.	.	.	.	.	.	.
2G\	.	2G/	-men	2B-\	.	8G/L	.	.
.	.	.	.	.	.	8A/	.	.
.	.	.	.	.	.	8B-/	.	.
.	.	.	.	.	.	8cny/J	.	.
=179-	=179-	=179-	=179-	=179-	=179-	=179-	=179-	=179-
2D/	men	1r	.	4A\	.	8d\L	.	.
.	.	.	.	.	.	8e\	.	.
.	.	.	.	4d\	.	8f\	.	.
.	.	.	.	.	.	8d\J	.	.
2r	.	.	.	4cny\	.	8e\L	.	.
.	.	.	.	.	.	8f\J	.	.
.	.	.	.	4B-\	.	2g\	.	.
2D/	A-	2d\	A-	2A/	-men	.	.	.
!	!	!	!	!	!	!LO:TX:t=P:problem:♯above	!	!
.	.	.	.	.	.	4f#X\	.	.
2E-X\	.	8G\L	.	2r	.	2g\	-men	.
.	.	8A\	.	.	.	.	.	.
.	.	8B-\	.	.	.	.	.	.
.	.	8c\J	.	.	.	.	.	.
=180-	=180-	=180-	=180-	=180-	=180-	=180-	=180-	=180-
2D/	.	4d\	.	8D/L	A-	1r	.	.
.	.	.	.	8Eny/	.	.	.	.
.	.	8A\L	.	8F/	.	.	.	.
.	.	8B-\J	.	8D/J	.	.	.	.
4C/	.	4c\	.	8E/L	.	.	.	.
.	.	.	.	8F/J	.	.	.	.
4BB-/	.	4G/	-men	2G/	.	.	.	.
2AA/	.	2A/	A-	.	.	2r	.	.
!	!	!	!	!LO:TX:t=P:problem:♯below	!	!	!	!
.	.	.	.	4F#X/	.	.	.	.
*	*	*	*	*	*	*	*ij	*
2GG/	men	4B-\	.	2G/	.	2d\	A-	.
.	.	4G/	.	.	.	.	.	.
=181-	=181-	=181-	=181-	=181-	=181-	=181-	=181-	=181-
!LO:SIC:v:t=custos D	!	!	!	!	!	!	!	!
0r	.	8D/L	.	2.A/	.	2fny\	.	.
.	.	8Eny/	.	.	.	.	.	.
.	.	8F/	.	.	.	.	.	.
.	.	8G/J	.	.	.	.	.	.
.	.	8A/L	.	.	.	4e\	.	.
.	.	8B-/	.	.	.	.	.	.
.	.	8c/	.	4Fny/	.	4a\	.	.
.	.	8A/J	.	.	.	.	.	.
.	.	8B-\L	.	2G/	.	4g\	.	.
.	.	8c\J	.	.	.	.	.	.
.	.	2d\	.	.	.	4f\	.	.
.	.	.	.	2A/	.	2e\	.	.
!	!	!LO:TX:t=P:problem:♯above	!	!	!	!	!	!
.	.	4c#X\	.	.	.	.	.	.
!LO:LB:g=original	!	!	!	!	!	!	!	!
=182-	=182-	=182-	=182-	=182-	=182-	=182-	=182-	=182-
2D/	A-	2d\	men	8D/L	.	2f\	.	.
.	.	.	.	8E/	.	.	.	.
.	.	.	.	8F/	.	.	.	.
.	.	.	.	8G/J	.	.	.	.
2C/	.	2r	.	8A\L	.	2e\	.	.
.	.	.	.	8B-\	.	.	.	.
.	.	.	.	8c\	.	.	.	.
.	.	.	.	8A\J	.	.	.	.
2BB-/	.	2r	.	8B-\L	.	4.d\	.	.
.	.	.	.	8c\J	.	.	.	.
.	.	.	.	2d\	.	.	.	.
.	.	.	.	.	.	8e\	.	.
2AA/	men	2A\	A-	.	.	4f\	.	.
!	!	!	!	!LO:TX:t=P:problem:♯above	!	!	!	!
.	.	.	.	4c#X\	.	8e\L	.	.
.	.	.	.	.	.	8f\J	.	.
=183-	=183-	=183-	=183-	=183-	=183-	=183-	=183-	=183-
*	*ij	*	*	*	*	*	*	*
8GG/L	A	2B-\	.	2d\	.	8g\L	.	.
8AA/	.	.	.	.	.	8f\	.	.
8BB-/	.	.	.	.	.	8d\	.	.
8C/J	.	.	.	.	.	8e\J	.	.
8D\L	.	4A\	.	2D/	.	2f\	.	.
8Eny\	.	.	.	.	.	.	.	.
8Fny\	.	4d\	.	.	.	.	.	.
8D\J	.	.	.	.	.	.	.	.
8E\L	.	4cny\	.	2G/	.	4e\	.	.
8F\J	.	.	.	.	.	.	.	.
2G\	.	4B-\	.	.	.	4d\	.	.
.	.	4A\	.	2D/	men	2d\	.	.
!LO:TX:t=P:problem:♯above	!	!	!	!	!	!	!	!
4F#X\	.	4d\	.	.	.	.	.	.
=184-	=184-	=184-	=184-	=184-	=184-	=184-	=184-	=184-
!	!	!	!	!	!	!LO:SIC:v:s=1d	!	!
4G\	.	8G\L	.	4r	.	1c\	-men	.
.	.	8A\	.	.	.	.	.	.
!	!	!	!	!LO:SIC:v:t=custos D	!	!	!	!
4GG/	.	8B-\	.	4d\	.	.	.	.
!	!	!LO:SIC:v:t=custos d	!	!	!	!	!	!
.	.	8c\J	.	.	.	.	.	.
!	!	!LO:LB:g=original	!	!LO:LB:g=original	!	!	!	!
2BB-/	.	4.d\	.	8D/L	A-	.	.	.
.	.	.	.	8E/	.	.	.	.
.	.	.	.	8F/	.	.	.	.
.	.	8e\	.	8G/J	.	.	.	.
4AA/	.	4f\	.	8A\L	.	2r	.	.
.	.	.	.	8B-\	.	.	.	.
4A\	.	4F/	men	8cny\	.	.	.	.
.	.	.	.	8A\J	.	.	.	.
!	!	!	!	!	!	!LO:TX:t=P:problem:niejednoznaczne źródło	!	!
4G\	.	2r	.	8B-\L	.	4r	.	.
.	.	.	.	8c\J	.	.	.	.
4Fn\	.	.	.	2d\	.	4d\	A-	.
=185-	=185-	=185-	=185-	=185-	=185-	=185-	=185-	=185-
2E\	.	2r	.	.	.	8e\L	.	.
.	.	.	.	.	.	8f\J	.	.
.	.	.	.	4c\	.	2g\	.	.
*	*	*	*ij	*	*	*	*	*
2D/	-men	2d\	A-	4B-\	.	.	.	.
.	.	.	.	4A/	.	4f\	.	.
2E-X\	A-	8G/L	.	2G/	.	4e-X\	.	.
.	.	8A/	.	.	.	.	.	.
!	!	!	!	!	!	!LO:SIC:v:t=custos f	!	!
.	.	8B-/	.	.	.	4g\	.	.
.	.	8c/J	.	.	.	.	.	.
!	!	!	!	!	!	!LO:LB:g=original	!	!
2D/	.	8d\L	.	8D/L	.	2f\	-men	.
.	.	8c\	.	8E/	.	.	.	.
.	.	8A\	.	8F/	.	.	.	.
.	.	8B-\J	.	8D/J	.	.	.	.
=186-	=186-	=186-	=186-	=186-	=186-	=186-	=186-	=186-
4C/	.	4c\	.	8E/L	.	2r	.	.
.	.	.	.	8F/J	.	.	.	.
4BB-/	.	4G/	.	2G/	.	.	.	.
2AA/	.	2A/	.	.	.	2A/	A-	.
!	!	!	!	!LO:TX:t=P:problem:♯below	!	!	!	!
.	.	.	.	4F#X/	.	.	.	.
8GG/L	.	2D/	men	2G/	.	2B-/	.	.
8AA/	.	.	.	.	.	.	.	.
8BB-/	.	.	.	.	.	.	.	.
8C/J	.	.	.	.	.	.	.	.
4D/	.	2r	.	4Fny/	.	4A/	.	.
4BB-/	.	.	.	4D/	.	4d\	.	.
=187-	=187-	=187-	=187-	=187-	=187-	=187-	=187-	=187-
4C/	.	2r	.	8E/L	.	4c/	.	.
.	.	.	.	8F/J	.	.	.	.
4GG/	.	.	.	2G/	men	4B-/	.	.
2D/	.	2A/	A-	.	.	2A/	.	.
.	.	.	.	4F#X/	.	.	.	.
*	*	*	*	*	*ij	*	*	*
2G\	.	2B-\	.	8G/L	A-	2G/	.	.
.	.	.	.	8A/	.	.	.	.
.	.	.	.	8B-/	.	.	.	.
.	.	.	.	8c/J	.	.	.	.
2F\	.	4A\	.	8d\L	.	2A/	.	.
.	.	.	.	8e\J	.	.	.	.
.	.	2d\	.	2f\	.	.	.	.
=188-	=188-	=188-	=188-	=188-	=188-	=188-	=188-	=188-
!	!	!	!	!	!	!LO:N:acc=#	!	!
1G\	men	.	.	.	.	4Bn/	.	.
.	.	2c\	.	4e-X\	.	8e-X\L	.	.
.	.	.	.	.	.	8f\J	.	.
.	.	.	.	2d\	.	4g\	.	.
!	!	!LO:TX:t=P:problem:♯above	!	!	!	!	!	!
!	!	!LO:N:acc=#	!	!	!	!	!	!
.	.	4Bn\	.	.	.	4d\	.	.
*	*Xij	*	*	*	*	*	*	*
2C/	A-	2c\	.	2e-X\	.	2c\	.	.
!LO:N:acc=#	!	!	!	!	!	!	!	!
2BBn/	.	2G/	.	1d\	.	2d\	.	.
=189-	=189-	=189-	=189-	=189-	=189-	=189-	=189-	=189-
1C/	.	1G/	.	.	.	1e-X\	.	.
.	.	.	.	2c\	.	.	.	.
!	!	!	!	!LO:N:acc=#	!	!	!	!
1GG/;;l	-men	1G/;l	men	1Bn\;l	men	1d\;l	men	.
==	==	==	==	==	==	==	==	==
*-	*-	*-	*-	*-	*-	*-	*-	*-
!!!system-decoration: [(*)]
!!!ENC: Marta Opryszak
!!!END: 2022-05-06
!!!RDF**kern: l = terminal long
!!!RDF**kern: > = above
!!!RDF**kern: < = below
!!!EED: Andrzej Borzym
!!!EEV: 2022-05-12
